(1001)
(T1  D=3. CR=0. - ZMIN=-25.5 - flat end mill)
G90
G53 G0 Z0.

(Adaptive1)
T1 M6 (flat end mill D=3.)
S12000 M3
G64
G54
G43 H1
G0 X12.971 Y14.927
Z15.
Z5.
Z2.5
G3 X14.024 Y12.971 Z2.414 I1.505 J-0.452 F333.3
X14.736 Y12.926 Z2.389 I0.452 J1.505
X16.023 Y14.734 Z2.303 I-0.261 J1.547
X15.747 Y15.392 Z2.277 I-1.547 J-0.261
X13.56 Y15.745 Z2.191 I-1.27 J-0.917
X13.092 Y15.208 Z2.166 I0.917 J-1.27
X13.743 Y13.092 Z2.08 I1.383 J-0.732
X14.431 Y12.911 Z2.055 I0.732 J1.383
X16.038 Y14.43 Z1.969 I0.044 J1.563
X15.896 Y15.126 Z1.943 I-1.563 J0.044
X13.826 Y15.893 Z1.857 I-1.419 J-0.651
X13.265 Y15.459 Z1.832 I0.651 J-1.419
X13.493 Y13.265 Z1.746 I1.211 J-0.983
X14.13 Y12.955 Z1.721 I0.983 J1.211
X15.994 Y14.129 Z1.635 I0.345 J1.519
X15.99 Y14.837 Z1.609 I-1.519 J0.345
X14.115 Y15.987 Z1.523 I-1.513 J-0.362
X13.483 Y15.67 Z1.498 I0.362 J-1.513
X13.281 Y13.483 Z1.412 I0.993 J-1.194
X13.844 Y13.057 Z1.387 I1.194 J0.993
X15.892 Y13.843 Z1.301 I0.631 J1.418
X16.025 Y14.536 Z1.275 I-1.418 J0.631
X14.415 Y16.022 Z1.189 I-1.548 J-0.062
X13.736 Y15.835 Z1.164 I0.062 J-1.548
X13.117 Y13.736 Z1.078 I0.74 J-1.359
X13.585 Y13.211 Z1.053 I1.359 J0.74
X15.738 Y13.584 Z0.967 I0.89 J1.264
X16.002 Y14.235 Z0.941 I-1.264 J0.89
X14.715 Y15.999 Z0.855 I-1.525 J0.239
X14.016 Y15.947 Z0.83 I-0.239 J-1.525
X13.005 Y14.015 Z0.744 I0.461 J-1.471
X13.361 Y13.412 Z0.719 I1.471 J0.461
X15.538 Y13.36 Z0.633 I1.114 J1.063
X15.921 Y13.946 Z0.608 I-1.063 J1.114
X15.004 Y15.918 Z0.521 I-1.444 J0.528
X14.311 Y16.003 Z0.496 I-0.528 J-1.444
X12.949 Y14.31 Z0.41 I0.166 J-1.527
X13.181 Y13.651 Z0.385 I1.527 J0.166
X15.298 Y13.18 Z0.299 I1.294 J0.824
X15.786 Y13.679 Z0.274 I-0.824 J1.294
X15.271 Y15.783 Z0.187 I-1.31 J0.795
X14.61 Y16. Z0.162 I-0.795 J-1.31
X12.952 Y14.609 Z0.076 I-0.133 J-1.524
X13.051 Y13.92 Z0.051 I1.524 J-0.133
X15.03 Y13.051 Z-0.035 I1.424 J0.555
X15.602 Y13.444 Z-0.06 I-0.555 J1.424
X15.506 Y15.6 Z-0.147 I-1.126 J1.03
X14.901 Y15.939 Z-0.172 I-1.03 J-1.126
X13.013 Y14.9 Z-0.258 I-0.424 J-1.464
X12.976 Y14.208 Z-0.283 I1.464 J-0.424
X14.742 Y12.976 Z-0.369 I1.499 J0.267
X15.378 Y13.249 Z-0.394 I-0.267 J1.499
X15.7 Y15.375 Z-0.481 I-0.902 J1.224
X15.175 Y15.824 Z-0.506 I-1.224 J-0.902
X13.128 Y15.173 Z-0.592 I-0.698 J-1.349
X12.959 Y14.504 Z-0.617 I1.349 J-0.698
X14.446 Y12.959 Z-0.703 I1.516 J-0.029
X15.12 Y13.103 Z-0.728 I0.029 J1.516
X15.846 Y15.118 Z-0.815 I-0.645 J1.37
X15.419 Y15.658 Z-0.84 I-1.37 J-0.645
X13.294 Y15.417 Z-0.926 I-0.942 J-1.183
X12.999 Y14.796 Z-0.951 I1.183 J-0.942
X14.154 Y12.999 Z-1.037 I1.476 J-0.321
X14.841 Y13.01 Z-1.062 I0.321 J1.476
X15.939 Y14.839 Z-1.149 I-0.365 J1.464
X15.626 Y15.449 Z-1.174 I-1.464 J-0.365
X13.503 Y15.624 Z-1.26 I-1.149 J-0.974
X13.095 Y15.074 Z-1.285 I0.974 J-1.149
X13.877 Y13.095 Z-1.371 I1.381 J-0.599
X14.549 Y12.973 Z-1.396 I0.599 J1.381
X15.976 Y14.548 Z-1.482 I-0.074 J1.501
X15.789 Y15.205 Z-1.508 I-1.501 J-0.074
X13.747 Y15.786 Z-1.594 I-1.311 J-0.73
X13.242 Y15.328 Z-1.619 I0.73 J-1.311
X13.624 Y13.242 Z-1.705 I1.234 J-0.852
X14.258 Y12.993 Z-1.73 I0.852 J1.234
X15.956 Y14.256 Z-1.816 I0.218 J1.481
X15.9 Y14.934 Z-1.842 I-1.481 J0.218
X14.017 Y15.897 Z-1.928 I-1.423 J-0.46
X13.435 Y15.546 Z-1.953 I0.46 J-1.423
X13.405 Y13.435 Z-2.039 I1.041 J-1.071
X13.976 Y13.069 Z-2.064 I1.071 J1.041
X15.88 Y13.975 Z-2.15 I0.499 J1.405
X15.956 Y14.649 Z-2.176 I-1.405 J0.499
X14.302 Y15.953 Z-2.262 I-1.479 J-0.175
X13.666 Y15.723 Z-2.287 I0.175 J-1.479
X13.229 Y13.666 Z-2.373 I0.81 J-1.247
X13.716 Y13.197 Z-2.398 I1.247 J0.81
X15.752 Y13.715 Z-2.484 I0.759 J1.277
X15.956 Y14.359 Z-2.51 I-1.277 J0.759
X14.592 Y15.953 Z-2.596 I-1.479 J0.115
X13.925 Y15.851 Z-2.621 I-0.115 J-1.479
X13.101 Y13.925 Z-2.707 I0.551 J-1.375
X13.487 Y13.373 Z-2.732 I1.375 J0.551
X15.576 Y13.486 Z-2.818 I0.988 J1.101
X15.9 Y14.076 Z-2.844 I-1.101 J0.988
X14.875 Y15.897 Z-2.93 I-1.423 J0.398
X14.204 Y15.926 Z-2.955 I-0.398 J-1.423
X13.026 Y14.203 Z-3.041 I0.273 J-1.45
X13.296 Y13.589 Z-3.066 I1.45 J0.273
X15.36 Y13.296 Z-3.152 I1.178 J0.885
X15.79 Y13.81 Z-3.177 I-0.885 J1.178
X15.14 Y15.787 Z-3.264 I-1.314 J0.664
X14.49 Y15.945 Z-3.289 I-0.664 J-1.314
X13.007 Y14.489 Z-3.375 I-0.014 J-1.47
X13.152 Y13.837 Z-3.4 I1.47 J-0.014
X15.112 Y13.152 Z-3.486 I1.322 J0.637
X15.632 Y13.571 Z-3.511 I-0.637 J1.322
X15.379 Y15.629 Z-3.598 I-1.155 J0.902
X14.774 Y15.909 Z-3.623 I-0.902 J-1.155
X13.043 Y14.773 Z-3.709 I-0.297 J-1.434
X13.06 Y14.108 Z-3.734 I1.434 J-0.297
X14.842 Y13.06 Z-3.82 I1.415 J0.367
X15.431 Y13.369 Z-3.845 I-0.367 J1.415
X15.581 Y15.428 Z-3.932 I-0.955 J1.105
X15.044 Y15.819 Z-3.957 I-1.105 J-0.955
X13.134 Y15.043 Z-4.043 I-0.568 J-1.343
X13.021 Y14.39 Z-4.068 I1.343 J-0.568
X14.56 Y13.021 Z-4.154 I1.454 J0.086
X15.195 Y13.21 Z-4.179 I-0.086 J1.454
X15.74 Y15.193 Z-4.266 I-0.719 J1.264
X15.291 Y15.678 Z-4.291 I-1.264 J-0.719
X13.274 Y15.289 Z-4.377 I-0.814 J-1.203
X13.038 Y14.673 Z-4.402 I1.203 J-0.814
X14.278 Y13.038 Z-4.488 I1.437 J-0.197
X14.934 Y13.1 Z-4.513 I0.197 J1.437
X15.85 Y14.932 Z-4.6 I-0.459 J1.374
X15.505 Y15.493 Z-4.625 I-1.374 J-0.459
X13.459 Y15.503 Z-4.711 I-1.028 J-1.018
X13.109 Y14.946 Z-4.736 I1.018 J-1.028
X14.005 Y13.11 Z-4.822 I1.366 J-0.47
X14.658 Y13.043 Z-4.847 I0.47 J1.366
X15.906 Y14.656 Z-4.933 I-0.183 J1.431
X15.678 Y15.271 Z-4.959 I-1.431 J-0.183
X13.681 Y15.675 Z-5.045 I-1.201 J-0.796
X13.232 Y15.199 Z-5.07 I0.796 J-1.201
X13.752 Y13.232 Z-5.156 I1.244 J-0.723
X14.377 Y13.04 Z-5.181 I0.723 J1.244
X15.909 Y14.376 Z-5.267 I0.098 J1.434
X15.804 Y15.02 Z-5.293 I-1.434 J0.098
X13.931 Y15.801 Z-5.379 I-1.327 J-0.546
X13.4 Y15.423 Z-5.404 I0.546 J-1.327
X13.529 Y13.4 Z-5.49 I1.076 J-0.947
X14.103 Y13.092 Z-5.515 I0.947 J1.076
X15.857 Y14.101 Z-5.601 I0.373 J1.382
X15.879 Y14.751 Z-5.627 I-1.382 J0.373
X14.2 Y15.876 Z-5.713 I-1.402 J-0.277
X13.608 Y15.609 Z-5.738 I0.277 J-1.402
X13.343 Y13.608 Z-5.824 I0.868 J-1.133
X13.844 Y13.196 Z-5.849 I1.133 J0.868
X15.753 Y13.843 Z-5.935 I0.631 J1.278
X15.9 Y14.474 Z-5.961 I-1.278 J0.631
X14.475 Y15.899 I-1.425 J0.
X13.05 Y14.474 I0. J-1.425
X14.475 Y13.049 I1.425 J0.
X15.9 Y14.474 I0. J1.425
G1 X15.935 Y15.195 F1000
X15.952 Y15.284
X15.96 Y15.434
X15.94 Y15.582
X15.897 Y15.726
X15.835 Y15.863
X15.757 Y15.991
X15.665 Y16.109
X15.561 Y16.217
X15.446 Y16.314
X15.323 Y16.399
X15.192 Y16.473
X15.056 Y16.536
X14.915 Y16.586
X14.769 Y16.625
X14.618 Y16.653
X14.462 Y16.669
X14.303 Y16.672
X14.141 Y16.663
X13.978 Y16.64
X13.815 Y16.603
X13.654 Y16.554
X13.496 Y16.49
X13.342 Y16.414
X13.194 Y16.325
X13.052 Y16.223
X12.919 Y16.11
X12.793 Y15.986
X12.678 Y15.851
X12.574 Y15.707
X12.481 Y15.554
X12.4 Y15.394
X12.332 Y15.228
X12.278 Y15.056
X12.238 Y14.88
X12.211 Y14.701
X12.2 Y14.52
X12.202 Y14.339
X12.22 Y14.158
X12.251 Y13.979
X12.298 Y13.803
X12.358 Y13.631
X12.432 Y13.464
X12.519 Y13.304
X12.618 Y13.151
X12.73 Y13.006
X12.853 Y12.871
X12.986 Y12.746
X13.13 Y12.632
X13.281 Y12.53
X13.441 Y12.441
X13.607 Y12.364
X13.779 Y12.301
X13.956 Y12.252
X14.136 Y12.218
X14.318 Y12.198
X14.501 Y12.193
X14.684 Y12.202
X14.865 Y12.226
X15.044 Y12.264
X15.22 Y12.317
X15.39 Y12.384
X15.555 Y12.464
X15.713 Y12.557
X15.863 Y12.663
X16.004 Y12.78
X16.135 Y12.908
X16.255 Y13.046
X16.364 Y13.194
X16.465 Y13.357
X16.576 Y13.572
X16.709 Y13.892
X16.819 Y14.229
X16.883 Y14.499
X16.92 Y14.736
X16.936 Y14.957
X16.935 Y15.171
X16.917 Y15.378
X16.883 Y15.576
X16.835 Y15.765
X16.772 Y15.95
X16.694 Y16.13
X16.601 Y16.305
X16.494 Y16.473
X16.373 Y16.632
X16.239 Y16.782
X16.092 Y16.922
X15.931 Y17.051
X15.759 Y17.169
X15.575 Y17.275
X15.379 Y17.366
X15.175 Y17.443
X14.961 Y17.504
X14.741 Y17.549
X14.514 Y17.575
X14.284 Y17.584
X14.051 Y17.574
X13.817 Y17.545
X13.584 Y17.497
X13.354 Y17.43
X13.128 Y17.344
X12.909 Y17.239
X12.697 Y17.116
X12.494 Y16.976
X12.302 Y16.819
X12.123 Y16.646
X11.957 Y16.459
X11.806 Y16.258
X11.671 Y16.045
X11.553 Y15.82
X11.454 Y15.587
X11.373 Y15.345
X11.312 Y15.097
X11.27 Y14.845
X11.25 Y14.589
X11.249 Y14.332
X11.269 Y14.076
X11.31 Y13.821
X11.372 Y13.571
X11.453 Y13.325
X11.554 Y13.087
X11.673 Y12.858
X11.811 Y12.639
X11.966 Y12.431
X12.137 Y12.237
X12.324 Y12.057
X12.524 Y11.892
X12.737 Y11.743
X12.961 Y11.613
X13.195 Y11.5
X13.438 Y11.407
X13.687 Y11.334
X13.941 Y11.281
X14.199 Y11.248
X14.459 Y11.236
X14.718 Y11.245
X14.977 Y11.275
X15.232 Y11.325
X15.482 Y11.396
X15.725 Y11.487
X15.961 Y11.597
X16.187 Y11.725
X16.402 Y11.872
X16.606 Y12.036
X16.805 Y12.223
X17.007 Y12.448
X17.201 Y12.702
X17.38 Y12.981
X17.54 Y13.278
X17.673 Y13.584
X17.778 Y13.89
X17.856 Y14.196
X17.908 Y14.499
X17.935 Y14.798
X17.938 Y15.094
X17.918 Y15.384
X17.874 Y15.67
X17.808 Y15.949
X17.721 Y16.22
X17.613 Y16.482
X17.484 Y16.735
X17.335 Y16.976
X17.166 Y17.205
X16.979 Y17.421
X16.774 Y17.623
X16.552 Y17.809
X16.314 Y17.977
X16.062 Y18.127
X15.795 Y18.258
X15.517 Y18.367
X15.228 Y18.455
X14.93 Y18.52
X14.626 Y18.561
X14.317 Y18.578
X14.005 Y18.57
X13.693 Y18.536
X13.382 Y18.477
X13.076 Y18.393
X12.775 Y18.284
X12.482 Y18.15
X12.199 Y17.993
X11.928 Y17.812
X11.672 Y17.609
X11.431 Y17.385
X11.208 Y17.141
X11.005 Y16.88
X10.823 Y16.602
X10.663 Y16.309
X10.527 Y16.004
X10.415 Y15.688
X10.329 Y15.363
X10.27 Y15.031
X10.236 Y14.695
X10.23 Y14.357
X10.252 Y14.02
X10.3 Y13.684
X10.375 Y13.353
X10.477 Y13.029
X10.604 Y12.714
X10.756 Y12.41
X10.933 Y12.119
X11.132 Y11.842
X11.353 Y11.583
X11.594 Y11.342
X11.854 Y11.121
X12.131 Y10.921
X12.423 Y10.745
X12.728 Y10.592
X13.045 Y10.464
X13.371 Y10.362
X13.704 Y10.287
X14.042 Y10.238
X14.383 Y10.217
X14.725 Y10.223
X15.065 Y10.257
X15.402 Y10.318
X15.732 Y10.405
X16.055 Y10.519
X16.367 Y10.659
X16.67 Y10.825
X16.967 Y11.019
X17.256 Y11.244
X17.535 Y11.499
X17.799 Y11.784
X18.045 Y12.094
X18.266 Y12.426
X18.46 Y12.774
X18.625 Y13.136
X18.759 Y13.506
X18.862 Y13.883
X18.934 Y14.263
X18.974 Y14.645
X18.984 Y15.025
X18.964 Y15.402
X18.913 Y15.773
X18.834 Y16.138
X18.726 Y16.493
X18.59 Y16.838
X18.427 Y17.17
X18.237 Y17.488
X18.023 Y17.791
X17.784 Y18.076
X17.523 Y18.342
X17.239 Y18.587
X16.935 Y18.81
X16.613 Y19.009
X16.273 Y19.182
X15.919 Y19.328
X15.552 Y19.446
X15.174 Y19.535
X14.788 Y19.594
X14.396 Y19.622
X14.001 Y19.618
X13.605 Y19.582
X13.211 Y19.514
X12.822 Y19.414
X12.441 Y19.283
X12.069 Y19.12
X11.71 Y18.928
X11.366 Y18.706
X11.039 Y18.456
X10.733 Y18.18
X10.449 Y17.88
X10.188 Y17.556
X9.954 Y17.212
X9.748 Y16.848
X9.571 Y16.469
X9.425 Y16.075
X9.311 Y15.671
X9.229 Y15.258
X9.181 Y14.838
X9.167 Y14.416
X9.186 Y13.993
X9.24 Y13.573
X9.327 Y13.157
X9.447 Y12.75
X9.6 Y12.354
X9.784 Y11.97
X9.998 Y11.603
X10.242 Y11.253
X10.513 Y10.924
X10.809 Y10.618
X11.129 Y10.336
X11.471 Y10.081
X11.833 Y9.854
X12.211 Y9.657
X12.605 Y9.491
X13.01 Y9.357
X13.425 Y9.256
X13.847 Y9.188
X14.273 Y9.154
X14.7 Y9.155
X15.126 Y9.19
X15.548 Y9.259
X15.964 Y9.362
X16.372 Y9.499
X16.771 Y9.67
X17.16 Y9.874
X17.536 Y10.112
X17.9 Y10.385
X18.246 Y10.692
X18.572 Y11.031
X18.872 Y11.399
X19.144 Y11.792
X19.384 Y12.206
X19.589 Y12.638
X19.759 Y13.084
X19.892 Y13.54
X19.987 Y14.002
X20.045 Y14.469
X20.064 Y14.936
X20.047 Y15.4
X19.992 Y15.86
X19.901 Y16.312
X19.775 Y16.753
X19.613 Y17.183
X19.418 Y17.598
X19.191 Y17.995
X18.932 Y18.374
X18.642 Y18.731
X18.325 Y19.064
X17.98 Y19.372
X17.611 Y19.653
X17.218 Y19.904
X16.805 Y20.123
X16.374 Y20.31
X15.927 Y20.462
X15.467 Y20.578
X14.996 Y20.657
X14.519 Y20.699
X14.037 Y20.702
X13.555 Y20.666
X13.075 Y20.592
X12.6 Y20.478
X12.134 Y20.326
X11.68 Y20.137
X11.241 Y19.91
X10.82 Y19.649
X10.419 Y19.353
X10.043 Y19.025
X9.693 Y18.667
X9.372 Y18.281
X9.083 Y17.87
X8.827 Y17.435
X8.606 Y16.98
X8.421 Y16.508
X8.276 Y16.022
X8.169 Y15.525
X8.102 Y15.02
X8.077 Y14.511
X8.092 Y14.001
X8.148 Y13.493
X8.245 Y12.991
X8.381 Y12.497
X8.558 Y12.016
X8.772 Y11.55
X9.023 Y11.103
X9.31 Y10.677
X9.63 Y10.275
X9.981 Y9.9
X10.361 Y9.555
X10.768 Y9.24
X11.199 Y8.96
X11.652 Y8.715
X12.122 Y8.507
X12.608 Y8.337
X13.106 Y8.207
X13.613 Y8.117
X14.126 Y8.068
X14.641 Y8.06
X15.155 Y8.094
X15.666 Y8.169
X16.171 Y8.286
X16.667 Y8.443
X17.153 Y8.641
X17.627 Y8.88
X18.085 Y9.16
X18.525 Y9.479
X18.942 Y9.837
X19.333 Y10.23
X19.694 Y10.657
X20.021 Y11.114
X20.311 Y11.596
X20.561 Y12.101
X20.77 Y12.623
X20.935 Y13.159
X21.057 Y13.705
X21.135 Y14.258
X21.168 Y14.813
X21.156 Y15.366
X21.1 Y15.916
X21. Y16.457
X20.857 Y16.988
X20.673 Y17.504
X20.448 Y18.004
X20.183 Y18.484
X19.881 Y18.942
X19.543 Y19.374
X19.17 Y19.779
X18.765 Y20.153
X18.33 Y20.494
X17.867 Y20.801
X17.38 Y21.07
X16.871 Y21.3
X16.343 Y21.49
X15.799 Y21.636
X15.243 Y21.74
X14.679 Y21.798
X14.109 Y21.811
X13.538 Y21.778
X12.969 Y21.699
X12.406 Y21.575
X11.853 Y21.404
X11.313 Y21.19
X10.791 Y20.931
X10.29 Y20.631
X9.813 Y20.291
X9.363 Y19.912
X8.945 Y19.497
X8.56 Y19.049
X8.211 Y18.571
X7.901 Y18.064
X7.633 Y17.534
X7.407 Y16.983
X7.226 Y16.414
X7.091 Y15.832
X7.003 Y15.241
X6.963 Y14.643
X6.971 Y14.043
X7.027 Y13.446
X7.131 Y12.854
X7.282 Y12.272
X7.48 Y11.703
X7.723 Y11.152
X8.009 Y10.622
X8.337 Y10.116
X8.705 Y9.638
X9.11 Y9.191
X9.55 Y8.778
X10.022 Y8.401
X10.523 Y8.063
X11.049 Y7.767
X11.598 Y7.513
X12.165 Y7.305
X12.747 Y7.142
X13.341 Y7.027
X13.942 Y6.96
X14.546 Y6.941
X15.152 Y6.971
X15.754 Y7.049
X16.35 Y7.177
X16.938 Y7.352
X17.513 Y7.576
X18.073 Y7.847
X18.614 Y8.165
X19.132 Y8.528
X19.623 Y8.935
X20.083 Y9.383
X20.508 Y9.869
X20.894 Y10.39
X21.238 Y10.942
X21.537 Y11.521
X21.789 Y12.121
X21.991 Y12.74
X22.143 Y13.371
X22.243 Y14.011
X22.292 Y14.656
X22.289 Y15.3
X22.234 Y15.941
X22.128 Y16.574
X21.972 Y17.195
X21.767 Y17.801
X21.514 Y18.389
X21.215 Y18.954
X20.871 Y19.493
X20.485 Y20.004
X20.058 Y20.483
X19.593 Y20.926
X19.093 Y21.332
X18.561 Y21.697
X18. Y22.02
X17.413 Y22.297
X16.804 Y22.527
X16.176 Y22.708
X15.533 Y22.838
X14.88 Y22.916
X14.221 Y22.942
X13.559 Y22.915
X12.899 Y22.835
X12.246 Y22.701
X11.604 Y22.515
X10.976 Y22.277
X10.369 Y21.989
X9.784 Y21.652
X9.227 Y21.268
X8.701 Y20.839
X8.21 Y20.369
X7.758 Y19.86
X7.347 Y19.315
X6.98 Y18.737
X6.661 Y18.131
X6.39 Y17.5
X6.171 Y16.849
X6.005 Y16.181
X5.892 Y15.501
X5.835 Y14.814
X5.832 Y14.123
X5.886 Y13.434
X5.994 Y12.751
X6.157 Y12.078
X6.374 Y11.42
X6.643 Y10.781
X6.962 Y10.166
X7.33 Y9.578
X7.745 Y9.021
X8.203 Y8.498
X8.701 Y8.015
X9.237 Y7.572
X9.806 Y7.174
X10.406 Y6.823
X11.033 Y6.521
X11.681 Y6.27
X12.348 Y6.072
X13.029 Y5.928
X13.719 Y5.84
X14.415 Y5.807
X15.112 Y5.829
X15.806 Y5.908
X16.494 Y6.043
X17.173 Y6.234
X17.838 Y6.48
X18.484 Y6.78
X19.109 Y7.133
X19.707 Y7.538
X20.271 Y7.99
X20.797 Y8.484
X21.281 Y9.019
X21.723 Y9.591
X22.118 Y10.195
X22.465 Y10.828
X22.761 Y11.486
X23.005 Y12.166
X23.196 Y12.862
X23.331 Y13.572
X23.41 Y14.289
X23.433 Y15.011
X23.398 Y15.732
X23.307 Y16.448
X23.16 Y17.155
X22.957 Y17.848
X22.7 Y18.523
X22.39 Y19.175
X22.029 Y19.8
X21.621 Y20.395
X21.166 Y20.956
X20.668 Y21.479
X20.131 Y21.961
X19.557 Y22.4
X18.951 Y22.792
X18.315 Y23.135
X17.655 Y23.427
X16.974 Y23.667
X16.277 Y23.854
X15.567 Y23.986
X14.849 Y24.062
X14.127 Y24.084
X13.406 Y24.049
X12.69 Y23.959
X11.983 Y23.813
X11.289 Y23.614
X10.612 Y23.362
X9.957 Y23.06
X9.326 Y22.709
X8.723 Y22.311
X8.152 Y21.869
X7.616 Y21.385
X7.118 Y20.863
X6.659 Y20.305
X6.244 Y19.715
X5.874 Y19.095
X5.55 Y18.449
X5.276 Y17.782
X5.052 Y17.095
X4.88 Y16.394
X4.762 Y15.682
X4.698 Y14.962
X4.687 Y14.24
X4.73 Y13.52
X4.826 Y12.804
X4.973 Y12.097
X5.173 Y11.403
X5.422 Y10.726
X5.721 Y10.069
X6.067 Y9.435
X6.459 Y8.828
X6.894 Y8.252
X7.372 Y7.711
X7.889 Y7.207
X8.442 Y6.743
X9.027 Y6.321
X9.642 Y5.942
X10.283 Y5.61
X10.947 Y5.325
X11.629 Y5.09
X12.327 Y4.905
X13.037 Y4.771
X13.754 Y4.69
X14.475 Y4.662
X15.197 Y4.688
X15.914 Y4.768
X16.624 Y4.901
X17.322 Y5.085
X18.005 Y5.319
X18.67 Y5.601
X19.313 Y5.93
X19.931 Y6.303
X20.521 Y6.718
X21.08 Y7.175
X21.604 Y7.672
X22.092 Y8.205
X22.54 Y8.77
X22.949 Y9.366
X23.315 Y9.988
X23.638 Y10.634
X23.916 Y11.3
X24.148 Y11.984
X24.331 Y12.682
X24.463 Y13.392
X24.545 Y14.109
X24.576 Y14.831
X24.557 Y15.552
X24.488 Y16.271
X24.37 Y16.983
X24.202 Y17.685
X23.986 Y18.374
X23.722 Y19.047
X23.41 Y19.697
X23.052 Y20.324
X22.65 Y20.924
X22.208 Y21.495
X21.727 Y22.033
X21.21 Y22.537
X20.659 Y23.004
X20.078 Y23.432
X19.467 Y23.818
X18.831 Y24.159
X18.172 Y24.454
X17.494 Y24.702
X16.801 Y24.904
X16.095 Y25.057
X15.381 Y25.162
X14.661 Y25.219
X13.939 Y25.226
X13.218 Y25.184
X12.502 Y25.091
X11.795 Y24.947
X11.099 Y24.755
X10.417 Y24.517
X9.753 Y24.233
X9.11 Y23.906
X8.49 Y23.536
X7.895 Y23.126
X7.33 Y22.677
X6.796 Y22.191
X6.298 Y21.669
X5.835 Y21.114
X5.411 Y20.53
X5.025 Y19.92
X4.681 Y19.285
X4.379 Y18.629
X4.121 Y17.955
X3.908 Y17.265
X3.742 Y16.562
X3.626 Y15.85
X3.559 Y15.131
X3.539 Y14.409
X3.567 Y13.688
X3.641 Y12.97
X3.763 Y12.258
X3.93 Y11.556
X4.143 Y10.866
X4.4 Y10.191
X4.702 Y9.535
X5.048 Y8.901
X5.435 Y8.292
X5.862 Y7.71
X6.326 Y7.157
X6.826 Y6.636
X7.359 Y6.149
X7.922 Y5.697
X8.514 Y5.283
X9.132 Y4.91
X9.773 Y4.579
X10.436 Y4.292
X11.116 Y4.049
X11.81 Y3.85
X12.515 Y3.697
X13.229 Y3.59
X13.949 Y3.529
X14.671 Y3.516
X15.392 Y3.551
X16.109 Y3.635
X16.819 Y3.767
X17.518 Y3.946
X18.205 Y4.169
X18.876 Y4.436
X19.528 Y4.745
X20.16 Y5.094
X20.769 Y5.482
X21.352 Y5.908
X21.907 Y6.37
X22.429 Y6.869
X22.917 Y7.401
X23.371 Y7.962
X23.789 Y8.551
X24.17 Y9.164
X24.512 Y9.8
X24.815 Y10.455
X25.077 Y11.128
X25.297 Y11.816
X25.473 Y12.516
X25.603 Y13.226
X25.686 Y13.943
X25.723 Y14.664
X25.716 Y15.386
X25.663 Y16.106
X25.567 Y16.822
X25.426 Y17.53
X25.242 Y18.228
X25.015 Y18.913
X24.744 Y19.583
X24.429 Y20.232
X24.072 Y20.86
X23.676 Y21.464
X23.243 Y22.042
X22.776 Y22.592
X22.274 Y23.111
X21.742 Y23.599
X21.181 Y24.054
X20.593 Y24.472
X19.979 Y24.852
X19.341 Y25.191
X18.683 Y25.488
X18.008 Y25.743
X17.318 Y25.955
X16.616 Y26.125
X15.905 Y26.252
X15.188 Y26.336
X14.467 Y26.376
X13.745 Y26.372
X13.025 Y26.323
X12.309 Y26.226
X11.602 Y26.084
X10.904 Y25.899
X10.219 Y25.671
X9.549 Y25.402
X8.896 Y25.093
X8.263 Y24.746
X7.652 Y24.362
X7.064 Y23.942
X6.503 Y23.487
X5.973 Y22.998
X5.474 Y22.476
X5.008 Y21.925
X4.575 Y21.347
X4.178 Y20.744
X3.818 Y20.118
X3.494 Y19.473
X3.21 Y18.809
X2.965 Y18.13
X2.761 Y17.437
X2.601 Y16.733
X2.486 Y16.02
X2.415 Y15.302
X2.388 Y14.58
X2.403 Y13.859
X2.461 Y13.139
X2.561 Y12.424
X2.703 Y11.716
X2.885 Y11.017
X3.108 Y10.331
X3.372 Y9.659
X3.678 Y9.004
X4.023 Y8.37
X4.405 Y7.758
X4.824 Y7.17
X5.277 Y6.608
X5.763 Y6.073
X6.279 Y5.569
X6.824 Y5.095
X7.395 Y4.654
X7.992 Y4.247
X8.613 Y3.878
X9.255 Y3.548
X9.916 Y3.258
X10.593 Y3.008
X11.284 Y2.798
X11.986 Y2.628
X12.696 Y2.5
X13.413 Y2.413
X14.134 Y2.369
X14.856 Y2.367
X15.576 Y2.409
X16.293 Y2.496
X17.003 Y2.627
X17.704 Y2.8
X18.394 Y3.014
X19.07 Y3.268
X19.73 Y3.559
X20.373 Y3.888
X20.996 Y4.253
X21.597 Y4.653
X22.175 Y5.086
X22.725 Y5.553
X23.246 Y6.053
X23.736 Y6.583
X24.195 Y7.141
X24.622 Y7.723
X25.015 Y8.329
X25.373 Y8.955
X25.697 Y9.601
X25.984 Y10.263
X26.234 Y10.941
X26.445 Y11.631
X26.616 Y12.333
X26.743 Y13.043
X26.829 Y13.76
X26.873 Y14.481
X26.876 Y15.203
X26.838 Y15.924
X26.76 Y16.642
X26.642 Y17.354
X26.485 Y18.059
X26.288 Y18.753
X26.053 Y19.436
X25.776 Y20.103
X25.46 Y20.752
X25.106 Y21.381
X24.716 Y21.989
X24.292 Y22.573
X23.836 Y23.133
X23.349 Y23.666
X22.833 Y24.171
X22.29 Y24.647
X21.721 Y25.091
X21.128 Y25.503
X20.512 Y25.879
X19.873 Y26.216
X19.217 Y26.516
X18.544 Y26.778
X17.857 Y27.001
X17.159 Y27.186
X16.452 Y27.332
X15.738 Y27.439
X15.019 Y27.507
X14.298 Y27.534
X13.576 Y27.522
X12.856 Y27.467
X12.141 Y27.37
X11.432 Y27.23
X10.733 Y27.052
X10.044 Y26.834
X9.369 Y26.579
X8.708 Y26.287
X8.065 Y25.96
X7.44 Y25.599
X6.835 Y25.204
X6.253 Y24.777
X5.696 Y24.318
X5.166 Y23.827
X4.666 Y23.307
X4.195 Y22.759
X3.756 Y22.186
X3.347 Y21.591
X2.972 Y20.974
X2.63 Y20.338
X2.323 Y19.685
X2.051 Y19.016
X1.815 Y18.334
X1.618 Y17.639
X1.461 Y16.934
X1.346 Y16.222
X1.271 Y15.503
X1.235 Y14.782
X1.239 Y14.06
X1.281 Y13.34
X1.362 Y12.622
X1.48 Y11.91
X1.637 Y11.205
X1.83 Y10.509
X2.06 Y9.825
X2.329 Y9.155
X2.635 Y8.501
X2.978 Y7.866
X3.356 Y7.25
X3.766 Y6.657
X4.208 Y6.086
X4.68 Y5.54
X5.181 Y5.019
X5.709 Y4.527
X6.262 Y4.063
X6.839 Y3.629
X7.439 Y3.227
X8.061 Y2.861
X8.703 Y2.53
X9.362 Y2.235
X10.036 Y1.977
X10.723 Y1.755
X11.421 Y1.571
X12.128 Y1.423
X12.842 Y1.313
X13.56 Y1.241
X14.281 Y1.208
X15.003 Y1.214
X15.724 Y1.26
X16.44 Y1.348
X17.151 Y1.476
X17.854 Y1.643
X18.546 Y1.847
X19.227 Y2.087
X19.894 Y2.363
X20.546 Y2.673
X21.182 Y3.016
X21.798 Y3.391
X22.394 Y3.799
X22.968 Y4.237
X23.516 Y4.707
X24.037 Y5.207
X24.531 Y5.734
X24.995 Y6.286
X25.431 Y6.862
X25.836 Y7.46
X26.21 Y8.078
X26.552 Y8.713
X26.862 Y9.365
X27.138 Y10.033
X27.38 Y10.713
X27.585 Y11.405
X27.753 Y12.107
X27.881 Y12.818
X27.97 Y13.534
X27.999 Y13.942
X28. Y13.975
Y14.921
X27.964 Y15.642
X27.933 Y16.363
X27.852 Y17.081
X27.729 Y17.792
X27.566 Y18.496
X27.365 Y19.189
X27.127 Y19.871
X26.85 Y20.538
X26.537 Y21.188
X26.19 Y21.821
X25.809 Y22.435
X25.397 Y23.028
X24.955 Y23.598
X24.484 Y24.146
X23.986 Y24.669
X23.462 Y25.165
X22.914 Y25.635
X22.342 Y26.075
X21.747 Y26.484
X21.13 Y26.859
X20.493 Y27.2
X19.84 Y27.507
X19.171 Y27.78
X18.65 Y27.961
X18.575 Y27.983
X18.498 Y27.996
X18.42 Y28.
X11.15
X10.59 Y27.972
X10.147 Y27.914
X9.607 Y27.798
X8.981 Y27.611
X8.308 Y27.349
X7.655 Y27.04
X7.022 Y26.693
X6.409 Y26.311
X5.817 Y25.898
X5.248 Y25.454
X4.703 Y24.981
X4.183 Y24.48
X3.689 Y23.953
X3.223 Y23.401
X2.785 Y22.827
X2.378 Y22.231
X2.001 Y21.615
X1.655 Y20.981
X1.341 Y20.331
X1.059 Y19.667
X0.811 Y18.989
X0.597 Y18.299
X0.419 Y17.599
X0.278 Y16.891
X0.173 Y16.177
X0.105 Y15.458
X0.073 Y14.737
X0.078 Y14.015
X0.119 Y13.294
X0.196 Y12.576
X0.308 Y11.863
X0.455 Y11.156
X0.637 Y10.457
X0.852 Y9.768
X1.102 Y9.091
X1.387 Y8.427
X1.705 Y7.779
X2.055 Y7.148
X2.437 Y6.535
X2.849 Y5.943
X3.292 Y5.372
X3.762 Y4.824
X4.259 Y4.3
X4.781 Y3.801
X5.326 Y3.329
X5.707 Y3.03
X5.856 Y2.942
X6.023 Y2.895
X6.196 Y2.893
X6.364 Y2.936
X6.815 Y3.007
X6.825 Y3.008
X7.267 Y2.949
X7.283 Y2.947
X7.758 Y2.737
X8.198 Y2.422
X8.373 Y2.296
X9.716 Y1.312
X10.13 Y1.039
X10.454 Y0.861
X10.865 Y0.677
X11.408 Y0.484
X12.086 Y0.303
X12.796 Y0.173
X13.513 Y0.092
X14.234 Y0.053
X14.956 Y0.054
X15.677 Y0.095
X16.395 Y0.173
X17.108 Y0.288
X17.814 Y0.439
X18.512 Y0.624
X19.2 Y0.843
X19.876 Y1.096
X20.54 Y1.38
X21.189 Y1.696
X21.822 Y2.042
X22.438 Y2.42
X23.034 Y2.827
X23.609 Y3.264
X24.161 Y3.729
X24.689 Y4.221
X25.193 Y4.739
X25.67 Y5.28
X26.121 Y5.844
X26.544 Y6.429
X26.939 Y7.033
X27.306 Y7.655
X27.643 Y8.294
X27.934 Y8.913
X27.97 Y9.009
X27.993 Y9.109
X28. Y9.211
Y13.975
Y14.136
Y14.921
Y19.512
X27.979 Y19.934
X27.934 Y20.273
X27.851 Y20.662
X27.703 Y21.159
X27.477 Y21.737
X27.162 Y22.387
X26.799 Y23.011
X26.398 Y23.611
X25.965 Y24.189
X25.503 Y24.744
X25.015 Y25.276
X24.502 Y25.784
X23.966 Y26.267
X23.407 Y26.725
X22.827 Y27.154
X22.226 Y27.554
X21.644 Y27.901
X21.531 Y27.955
X21.41 Y27.989
X21.285 Y28.
X18.42
G3 X18.131 Y27.69 Z-5.761 I0.01 J-0.3
G1 X18.139 Y27.63
X18.159 Y27.572
X18.191 Y27.52
X18.232 Y27.475
X18.254 Y27.456
X27.451 Y19.342
X27.502 Y19.298
X27.558 Y19.258
X27.622 Y19.233
X27.69 Y19.223
G3 X28. Y19.512 Z-5.961 I0.01 J0.3
G1 Y21.972
X27.985 Y22.276
X27.955 Y22.501
X27.897 Y22.775
X27.798 Y23.104
X27.65 Y23.484
X27.427 Y23.943
X27.098 Y24.503
X26.683 Y25.094
X26.227 Y25.654
X25.74 Y26.187
X25.228 Y26.696
X24.691 Y27.179
X24.132 Y27.636
X23.828 Y27.862
X23.7 Y27.937
X23.559 Y27.984
X23.411 Y28.
G3 X23.121 Y27.69 Z-5.761 I0.01 J-0.3
G1 X23.129 Y27.63
X23.15 Y27.572
X23.181 Y27.52
X23.235 Y27.447
X27.457 Y21.807
X27.46 Y21.802
G3 X27.69 Y21.682 I0.24 J0.18
X28. Y21.972 Z-5.961 I0.01 J0.3
G1 Y23.939
X27.987 Y24.199
X27.96 Y24.405
X27.912 Y24.631
X27.834 Y24.889
X27.71 Y25.208
X27.543 Y25.552
X27.29 Y25.983
X26.928 Y26.498
X26.467 Y27.053
X25.966 Y27.574
X25.705 Y27.814
X25.564 Y27.915
X25.403 Y27.979
X25.23 Y28.
G3 X24.941 Y27.69 Z-5.761 I0.01 J-0.3
G1 X24.948 Y27.636
X24.964 Y27.584
X24.99 Y27.536
X25.05 Y27.444
X27.449 Y23.785
G3 X27.69 Y23.65 I0.251 J0.165
X28. Y23.939 Z-5.961 I0.01 J0.3
G1 Y25.743
X27.99 Y25.942
X27.968 Y26.11
X27.924 Y26.314
X27.85 Y26.562
X27.752 Y26.814
X27.601 Y27.126
X27.396 Y27.473
X27.235 Y27.702
X27.08 Y27.862
X26.882 Y27.965
X26.662 Y28.
G3 X26.373 Y27.69 Z-5.761 I0.01 J-0.3
G1 X26.383 Y27.623
X26.407 Y27.56
X26.472 Y27.438
X27.435 Y25.613
G3 X27.69 Y25.454 I0.265 J0.14
G1 X27.7 Y25.453 Z-5.765
G3 X28. Y25.743 Z-5.961 I0. J0.3
G1 Y27.383
X27.993 Y27.532
X27.923 Y27.717
X27.796 Y27.868
X27.624 Y27.966
X27.43 Y28.
G3 X27.14 Y27.69 Z-5.761 I0.01 J-0.3
G1 X27.15 Y27.624
X27.174 Y27.562
X27.211 Y27.506
X27.258 Y27.45
X27.456 Y27.217
X27.471 Y27.199
X27.516 Y27.156
X27.569 Y27.123
X27.628 Y27.102
X27.69 Y27.093
X27.7 Z-5.765
G3 X28. Y27.383 Z-5.961 I0. J0.3
G1 Y27.547
X27.998 Y27.711
X27.991 Y27.752
X27.978 Y27.793
X27.958 Y27.834
X27.929 Y27.874
X27.874 Y27.929
X27.834 Y27.958
X27.793 Y27.978
X27.752 Y27.991
X27.711 Y27.998
X27.547 Y28.
X21.285
G0 Z5.
X9.122 Y2.212
Z-5.361
G1 Z-5.661 F1000
X9.124 Y2.205 Z-5.727
X9.133 Y2.184 Z-5.791
X9.147 Y2.152 Z-5.848
X9.166 Y2.108 Z-5.895
X9.188 Y2.055 Z-5.931
X9.213 Y1.997 Z-5.953
X9.239 Y1.936 Z-5.961
G3 X9.716 Y1.312 I1.456 J0.619
G1 X10.387 Y0.82
X10.494 Y0.738
X10.658 Y0.602
X10.822 Y0.44
X11.263 Y0.
X11.426 Y-0.148
X11.585 Y-0.27
X11.769 Y-0.389
X12.014 Y-0.521
X12.308 Y-0.65
X12.68 Y-0.779
X13.139 Y-0.898
X13.731 Y-1.001
X14.45 Y-1.068
X15.172 Y-1.078
X15.893 Y-1.042
X16.611 Y-0.966
X17.324 Y-0.853
X18.031 Y-0.705
X18.73 Y-0.523
X19.42 Y-0.31
X20.099 Y-0.066
X20.767 Y0.208
X21.422 Y0.512
X22.063 Y0.844
X22.688 Y1.205
X23.297 Y1.594
X23.886 Y2.01
X24.457 Y2.453
X25.006 Y2.922
X25.532 Y3.416
X26.035 Y3.934
X26.514 Y4.474
X26.968 Y5.036
X27.397 Y5.617
X27.8 Y6.216
X27.897 Y6.376
X27.954 Y6.491
X27.988 Y6.614
X28. Y6.741
Y9.211
G0 Z5.
X10.813 Y0.98
Z-5.361
G1 Z-5.661 F1000
X10.814 Y0.973 Z-5.727
X10.82 Y0.951 Z-5.791
X10.829 Y0.917 Z-5.848
X10.84 Y0.871 Z-5.895
X10.854 Y0.816 Z-5.931
X10.87 Y0.754 Z-5.953
X10.886 Y0.689 Z-5.961
G3 X11.263 Y0. I1.534 J0.39
G1 X11.642 Y-0.379
X11.754 Y-0.492
X11.97 Y-0.732
X12.047 Y-0.82
X12.169 Y-0.984
X12.235 Y-1.074
X12.33 Y-1.19
X12.442 Y-1.299
X12.579 Y-1.412
X12.736 Y-1.521
X12.94 Y-1.64
X13.195 Y-1.762
X13.478 Y-1.87
X13.859 Y-1.983
X14.285 Y-2.072
X14.841 Y-2.142
X15.533 Y-2.173
X16.255 Y-2.148
X16.973 Y-2.074
X17.686 Y-1.961
X18.393 Y-1.813
X19.092 Y-1.631
X19.782 Y-1.419
X20.462 Y-1.177
X21.131 Y-0.906
X21.788 Y-0.607
X22.433 Y-0.281
X23.063 Y0.072
X23.677 Y0.45
X24.276 Y0.855
X24.856 Y1.284
X25.418 Y1.738
X25.959 Y2.215
X26.48 Y2.715
X26.979 Y3.237
X27.455 Y3.78
X27.845 Y4.264
X27.93 Y4.397
X27.982 Y4.546
X28. Y4.703
Y6.741
G0 Z5.
X11.94 Y-0.037
Z-5.361
G1 Z-5.661 F1000
X11.941 Y-0.044 Z-5.727
X11.943 Y-0.066 Z-5.791
X11.946 Y-0.102 Z-5.848
X11.951 Y-0.149 Z-5.895
X11.956 Y-0.206 Z-5.931
X11.962 Y-0.269 Z-5.953
X11.969 Y-0.335 Z-5.961
G3 X12.235 Y-1.074 I1.575 J0.151
G1 X12.529 Y-1.476
X12.626 Y-1.616
X12.857 Y-1.968
X12.91 Y-2.057
X12.993 Y-2.181
X13.092 Y-2.295
X13.201 Y-2.401
X13.332 Y-2.508
X13.503 Y-2.627
X13.696 Y-2.74
X13.931 Y-2.852
X14.237 Y-2.97
X14.562 Y-3.066
X14.999 Y-3.157
X15.49 Y-3.219
X16.11 Y-3.247
X16.832 Y-3.222
X17.55 Y-3.143
X18.261 Y-3.022
X18.966 Y-2.865
X19.663 Y-2.675
X20.351 Y-2.456
X21.029 Y-2.208
X21.697 Y-1.934
X22.353 Y-1.633
X22.997 Y-1.306
X23.627 Y-0.954
X24.242 Y-0.576
X24.843 Y-0.175
X25.426 Y0.25
X25.993 Y0.698
X26.541 Y1.168
X27.07 Y1.659
X27.579 Y2.171
X27.816 Y2.429
X27.916 Y2.57
X27.979 Y2.731
X28. Y2.902
Y4.703
G0 Z5.
X12.715 Y-0.996
Z-5.361
G1 Z-5.661 F1000
Y-1.003 Z-5.727
Y-1.025 Z-5.791
Y-1.061 Z-5.848
Y-1.109 Z-5.895
Y-1.166 Z-5.931
Y-1.229 Z-5.953
Y-1.296 Z-5.961
G3 X12.91 Y-2.057 I1.583 J0.001
G1 X12.955 Y-2.132
X13.372 Y-2.951
X13.454 Y-3.094
X13.539 Y-3.217
X13.636 Y-3.332
X13.753 Y-3.448
X13.886 Y-3.56
X14.051 Y-3.677
X14.254 Y-3.799
X14.48 Y-3.91
X14.779 Y-4.029
X15.094 Y-4.126
X15.521 Y-4.22
X15.976 Y-4.283
X16.563 Y-4.316
X17.279 Y-4.299
X17.997 Y-4.224
X18.709 Y-4.104
X19.413 Y-3.946
X20.11 Y-3.756
X20.798 Y-3.536
X21.476 Y-3.289
X22.144 Y-3.015
X22.801 Y-2.716
X23.446 Y-2.392
X24.079 Y-2.044
X24.698 Y-1.672
X25.302 Y-1.278
X25.892 Y-0.861
X26.466 Y-0.423
X27.023 Y0.037
X27.562 Y0.517
X27.784 Y0.73
X27.901 Y0.876
X27.975 Y1.049
X28. Y1.235
Y2.902
G0 Z5.
X13.247 Y-1.88
Z-5.361
G1 Z-5.661 F1000
X13.246 Y-1.888 Z-5.727
X13.245 Y-1.91 Z-5.791
X13.243 Y-1.945 Z-5.848
X13.24 Y-1.993 Z-5.895
X13.236 Y-2.05 Z-5.931
X13.232 Y-2.113 Z-5.953
X13.227 Y-2.18 Z-5.961
G3 X13.372 Y-2.951 I1.579 J-0.103
G1 X13.623 Y-3.443
X13.709 Y-3.638
X13.74 Y-3.771
X13.781 Y-3.915
X13.843 Y-4.052
X13.921 Y-4.181
X14.011 Y-4.3
X14.112 Y-4.411
X14.243 Y-4.535
X14.391 Y-4.653
X14.576 Y-4.778
X14.79 Y-4.898
X15.046 Y-5.016
X15.355 Y-5.13
X15.712 Y-5.229
X16.152 Y-5.315
X16.673 Y-5.373
X17.267 Y-5.391
X17.988 Y-5.356
X18.704 Y-5.264
X19.414 Y-5.13
X20.115 Y-4.959
X20.809 Y-4.758
X21.493 Y-4.528
X22.168 Y-4.271
X22.833 Y-3.99
X23.487 Y-3.684
X24.129 Y-3.355
X24.76 Y-3.003
X25.378 Y-2.63
X25.982 Y-2.234
X26.571 Y-1.817
X27.146 Y-1.38
X27.704 Y-0.922
X27.77 Y-0.863
X27.894 Y-0.714
X27.973 Y-0.536
X28. Y-0.344
Y1.235
G0 Z5.
X13.875 Y-2.701
Z-5.361
G1 Z-5.661 F1000
X13.873 Y-2.708 Z-5.727
X13.866 Y-2.729 Z-5.791
X13.855 Y-2.764 Z-5.848
X13.841 Y-2.809 Z-5.895
X13.824 Y-2.863 Z-5.931
X13.805 Y-2.923 Z-5.953
X13.784 Y-2.987 Z-5.961
G3 X13.74 Y-3.771 I1.508 J-0.479
G1 X13.816 Y-4.099
X13.846 Y-4.263
X13.898 Y-4.591
X13.929 Y-4.738
X13.975 Y-4.881
X14.039 Y-5.016
X14.117 Y-5.145
X14.208 Y-5.268
X14.314 Y-5.389
X14.451 Y-5.524
X14.604 Y-5.651
X14.803 Y-5.791
X15.018 Y-5.918
X15.299 Y-6.055
X15.597 Y-6.171
X15.983 Y-6.287
X16.399 Y-6.376
X16.918 Y-6.445
X17.535 Y-6.476
X18.255 Y-6.455
X18.973 Y-6.376
X19.684 Y-6.25
X20.387 Y-6.087
X21.083 Y-5.892
X21.769 Y-5.668
X22.446 Y-5.418
X23.114 Y-5.144
X23.772 Y-4.846
X24.419 Y-4.526
X25.055 Y-4.184
X25.679 Y-3.821
X26.29 Y-3.437
X26.888 Y-3.032
X27.472 Y-2.608
X27.731 Y-2.406
X27.876 Y-2.252
X27.968 Y-2.063
X28. Y-1.854
Y-0.344
G3 X27.69 Y-0.055 Z-5.761 I-0.3 J-0.01
G1 X27.655 Y-0.058
X27.62 Y-0.066
X27.425 Y-0.12
X13.933 Y-3.871
X13.895 Y-3.875
X13.858 Y-3.863
X13.829 Y-3.839
X13.811 Y-3.806
X13.806 Y-3.768
X13.816 Y-3.731
X13.839 Y-3.701
X13.872 Y-3.681
X13.909 Y-3.675
X13.946 Y-3.684
X13.978 Y-3.706
X13.998 Y-3.737
X14.006 Y-3.775
X13.999 Y-3.812
G3 X13.91 Y-4.122 I1.47 J-0.586
X13.898 Y-4.591 Z-5.961 I1.558 J-0.276
G1 X14.001 Y-5.247
X14.048 Y-5.575
X14.077 Y-5.722
X14.124 Y-5.864
X14.188 Y-6.
X14.264 Y-6.129
X14.359 Y-6.262
X14.467 Y-6.39
X14.608 Y-6.532
X14.77 Y-6.671
X14.972 Y-6.818
X15.197 Y-6.955
X15.483 Y-7.1
X15.792 Y-7.226
X16.194 Y-7.353
X16.618 Y-7.451
X17.152 Y-7.53
X17.776 Y-7.571
X18.491 Y-7.561
X19.21 Y-7.492
X19.922 Y-7.377
X20.627 Y-7.222
X21.325 Y-7.034
X22.014 Y-6.818
X22.694 Y-6.576
X23.365 Y-6.309
X24.026 Y-6.02
X24.678 Y-5.709
X25.319 Y-5.377
X25.949 Y-5.024
X26.567 Y-4.651
X27.173 Y-4.259
X27.737 Y-3.868
X27.744 Y-3.862
X27.882 Y-3.71
X27.97 Y-3.524
X28. Y-3.321
Y-1.854
G3 X27.69 Y-1.565 Z-5.761 I-0.3 J-0.01
G1 X27.655 Y-1.568
X27.621 Y-1.575
X27.425 Y-1.629
X14.577 Y-5.168
X14.313 Y-5.241
X14.267 Y-5.254 Z-5.781
G3 X14.048 Y-5.575 Z-5.961 I0.08 J-0.289
G1 X14.071 Y-5.739
X14.041 Y-6.231
X14.036 Y-6.258
X14.021 Y-6.407
X14.041 Y-6.556
X14.079 Y-6.701
X14.132 Y-6.841
X14.199 Y-6.976
X14.284 Y-7.116
X14.385 Y-7.255
X14.514 Y-7.407
X14.664 Y-7.556
X14.853 Y-7.717
X15.068 Y-7.871
X15.326 Y-8.027
X15.634 Y-8.18
X15.979 Y-8.319
X16.417 Y-8.455
X16.881 Y-8.56
X17.447 Y-8.64
X18.106 Y-8.68
X18.828 Y-8.666
X19.547 Y-8.598
X20.26 Y-8.484
X20.966 Y-8.333
X21.664 Y-8.149
X22.354 Y-7.937
X23.035 Y-7.698
X23.708 Y-7.436
X24.372 Y-7.152
X25.026 Y-6.846
X25.67 Y-6.52
X26.304 Y-6.174
X26.927 Y-5.809
X27.538 Y-5.425
X27.708 Y-5.303
X27.865 Y-5.148
X27.965 Y-4.952
X28. Y-4.734
Y-3.321
G3 X27.69 Y-3.032 Z-5.761 I-0.3 J-0.01
G1 X27.635 Y-3.039
X27.422 Y-3.086
X14.652 Y-5.935
X14.385 Y-5.995
X14.266 Y-6.021 Z-5.812
G3 X14.036 Y-6.258 Z-5.961 I0.065 J-0.293
G1 X13.964 Y-6.723
X13.912 Y-7.051
X13.896 Y-7.2
X13.904 Y-7.35
X13.93 Y-7.497
X13.973 Y-7.641
X14.028 Y-7.781
X14.102 Y-7.929
X14.19 Y-8.075
X14.308 Y-8.239
X14.443 Y-8.398
X14.616 Y-8.571
X14.813 Y-8.739
X15.057 Y-8.916
X15.343 Y-9.089
X15.663 Y-9.25
X16.064 Y-9.412
X16.502 Y-9.55
X17.017 Y-9.667
X17.635 Y-9.756
X18.33 Y-9.801
X19.052 Y-9.788
X19.771 Y-9.725
X20.485 Y-9.617
X21.192 Y-9.472
X21.892 Y-9.295
X22.584 Y-9.09
X23.268 Y-8.859
X23.944 Y-8.604
X24.611 Y-8.328
X25.269 Y-8.031
X25.918 Y-7.714
X26.556 Y-7.378
X27.185 Y-7.023
X27.64 Y-6.745
X27.712 Y-6.693
X27.866 Y-6.538
X27.966 Y-6.343
X28. Y-6.126
Y-4.734
G3 X27.69 Y-4.445 Z-5.761 I-0.3 J-0.01
G1 X27.648 Y-4.449
X27.42 Y-4.489
X14.532 Y-6.746
X14.262 Y-6.793
X14.154 Y-6.812 Z-5.807
G3 X13.912 Y-7.051 Z-5.961 I0.052 J-0.296
G1 X13.859 Y-7.379
X13.805 Y-7.706
X13.773 Y-7.864
X13.744 Y-8.011
X13.738 Y-8.161
X13.752 Y-8.31
X13.783 Y-8.457
X13.827 Y-8.601
X13.887 Y-8.75
X13.964 Y-8.902
X14.066 Y-9.07
X14.188 Y-9.24
X14.341 Y-9.418
X14.526 Y-9.603
X14.744 Y-9.788
X15.017 Y-9.984
X15.311 Y-10.161
X15.674 Y-10.343
X16.11 Y-10.518
X16.576 Y-10.663
X17.151 Y-10.793
X17.811 Y-10.887
X18.532 Y-10.931
X19.254 Y-10.919
X19.973 Y-10.858
X20.688 Y-10.756
X21.396 Y-10.617
X22.098 Y-10.447
X22.792 Y-10.249
X23.479 Y-10.026
X24.158 Y-9.779
X24.828 Y-9.511
X25.49 Y-9.223
X26.143 Y-8.915
X26.787 Y-8.588
X27.421 Y-8.242
X27.677 Y-8.079
X27.811 Y-7.967
X27.914 Y-7.825
X27.978 Y-7.663
X28. Y-7.489
Y-6.126
G3 X27.69 Y-5.837 Z-5.761 I-0.3 J-0.01
G1 X27.66 Y-5.84
X27.419 Y-5.872
X14.434 Y-7.619
X14.163 Y-7.656
X14.013 Y-7.676 Z-5.825
G3 X13.773 Y-7.864 Z-5.961 I0.04 J-0.297
G1 X13.656 Y-8.198
X13.609 Y-8.311
X13.537 Y-8.453
X13.476 Y-8.589
X13.442 Y-8.736
X13.429 Y-8.885
X13.434 Y-9.035
X13.454 Y-9.184
X13.487 Y-9.33
X13.538 Y-9.49
X13.603 Y-9.65
X13.695 Y-9.833
X13.804 Y-10.013
X13.946 Y-10.208
X14.116 Y-10.407
X14.32 Y-10.61
X14.577 Y-10.827
X14.858 Y-11.028
X15.2 Y-11.235
X15.616 Y-11.441
X16.056 Y-11.618
X16.597 Y-11.785
X17.231 Y-11.927
X17.934 Y-12.026
X18.655 Y-12.069
X19.376 Y-12.06
X20.096 Y-12.004
X20.812 Y-11.908
X21.522 Y-11.778
X22.226 Y-11.617
X22.923 Y-11.429
X23.613 Y-11.216
X24.295 Y-10.979
X24.969 Y-10.721
X25.636 Y-10.443
X26.294 Y-10.146
X26.943 Y-9.83
X27.498 Y-9.537
X27.676 Y-9.423
X27.811 Y-9.311
X27.914 Y-9.17
X27.978 Y-9.007
X28. Y-8.833
Y-7.489
G3 X27.69 Y-7.2 Z-5.761 I-0.3 J-0.01
G1 X27.677
X27.417 Y-7.221
X14.224 Y-8.264
X13.951 Y-8.285
X13.776 Y-8.299 Z-5.835
G3 X13.537 Y-8.453 Z-5.961 I0.024 J-0.299
G1 X13.166 Y-9.182
X13.104 Y-9.319
X13.067 Y-9.464
X13.048 Y-9.613
X13.045 Y-9.763
X13.058 Y-9.913
X13.082 Y-10.061
X13.125 Y-10.23
X13.182 Y-10.4
X13.265 Y-10.595
X13.368 Y-10.789
X13.501 Y-10.998
X13.667 Y-11.218
X13.861 Y-11.436
X14.11 Y-11.674
X14.391 Y-11.903
X14.719 Y-12.128
X15.123 Y-12.361
X15.582 Y-12.578
X16.096 Y-12.773
X16.711 Y-12.951
X17.406 Y-13.092
X18.122 Y-13.179
X18.844 Y-13.213
X19.565 Y-13.201
X20.285 Y-13.146
X21.001 Y-13.054
X21.712 Y-12.928
X22.417 Y-12.773
X23.116 Y-12.59
X23.808 Y-12.384
X24.493 Y-12.155
X25.17 Y-11.905
X25.84 Y-11.635
X26.501 Y-11.346
X27.154 Y-11.038
X27.554 Y-10.825
X27.678 Y-10.745
X27.812 Y-10.633
X27.914 Y-10.492
X27.978 Y-10.329
X28. Y-10.156
Y-8.833
G3 X27.698 Y-8.543 Z-5.764 I-0.3 J-0.01
G1 X27.69 Z-5.761
X27.416 Y-8.545
X13.652 Y-8.627
X13.614 Y-8.619
X13.583 Y-8.599
X13.561 Y-8.568
X13.552 Y-8.531
X13.557 Y-8.494
X13.576 Y-8.461
X13.606 Y-8.438
X13.643 Y-8.427
X13.68 Y-8.431
X13.714 Y-8.448
X13.738 Y-8.477
X13.751 Y-8.513
X13.749 Y-8.551
X13.733 Y-8.585
X13.705 Y-8.611
G3 X13.452 Y-8.81 I0.845 J-1.338
X13.166 Y-9.182 Z-5.961 I1.098 J-1.139
G1 X13.082 Y-9.346
X12.994 Y-9.51
X12.773 Y-9.913
X12.701 Y-10.045
X12.656 Y-10.187
X12.628 Y-10.335
X12.617 Y-10.485
X12.62 Y-10.635
X12.636 Y-10.787
X12.669 Y-10.961
X12.716 Y-11.137
X12.789 Y-11.341
X12.881 Y-11.542
X13.005 Y-11.767
X13.158 Y-11.997
X13.343 Y-12.233
X13.582 Y-12.491
X13.849 Y-12.737
X14.176 Y-12.992
X14.571 Y-13.253
X15.017 Y-13.498
X15.522 Y-13.725
X16.128 Y-13.941
X16.813 Y-14.124
X17.523 Y-14.255
X18.241 Y-14.333
X18.963 Y-14.364
X19.684 Y-14.351
X20.405 Y-14.299
X21.121 Y-14.211
X21.833 Y-14.092
X22.54 Y-13.944
X23.241 Y-13.77
X23.935 Y-13.572
X24.622 Y-13.351
X25.303 Y-13.11
X25.976 Y-12.85
X26.642 Y-12.571
X27.299 Y-12.27
X27.627 Y-12.088
X27.687 Y-12.049
X27.818 Y-11.937
X27.917 Y-11.796
X27.979 Y-11.636
X28. Y-11.465
Y-10.156
G0 Z5.
X13.644 Y-9.277
Z-5.361
G1 Z-5.661 F1000
X13.638 Y-9.28 Z-5.727
X13.618 Y-9.29 Z-5.791
X13.585 Y-9.305 Z-5.848
X13.543 Y-9.326 Z-5.895
X13.491 Y-9.351 Z-5.931
X13.434 Y-9.378 Z-5.953
X13.374 Y-9.407 Z-5.961
G3 X12.773 Y-9.913 I0.687 J-1.426
G1 X12.763 Y-9.928
X12.626 Y-10.097
X12.564 Y-10.166
X12.401 Y-10.33
X12.3 Y-10.441
X12.221 Y-10.569
X12.161 Y-10.706
X12.118 Y-10.85
X12.091 Y-10.997
X12.077 Y-11.147
X12.076 Y-11.304
X12.089 Y-11.475
X12.118 Y-11.665
X12.165 Y-11.861
X12.238 Y-12.084
X12.33 Y-12.307
X12.456 Y-12.552
X12.617 Y-12.811
X12.807 Y-13.068
X13.053 Y-13.35
X13.344 Y-13.635
X13.675 Y-13.91
X14.078 Y-14.194
X14.563 Y-14.481
X15.099 Y-14.741
X15.704 Y-14.978
X16.396 Y-15.186
X17.101 Y-15.339
X17.816 Y-15.442
X18.536 Y-15.5
X19.257 Y-15.516
X19.979 Y-15.493
X20.699 Y-15.435
X21.415 Y-15.345
X22.127 Y-15.225
X22.834 Y-15.078
X23.535 Y-14.905
X24.23 Y-14.71
X24.918 Y-14.492
X25.6 Y-14.255
X26.275 Y-13.998
X26.942 Y-13.723
X27.407 Y-13.506
X27.679 Y-13.351
X27.694 Y-13.341
X27.858 Y-13.186
X27.963 Y-12.986
X28. Y-12.762
Y-11.465
G0 Z5.
X13.38 Y-9.878
Z-5.361
G1 Z-5.661 F1000
X13.373 Y-9.88 Z-5.727
X13.351 Y-9.886 Z-5.791
X13.317 Y-9.894 Z-5.848
X13.271 Y-9.906 Z-5.895
X13.216 Y-9.92 Z-5.931
X13.154 Y-9.936 Z-5.953
X13.09 Y-9.953 Z-5.961
G3 X12.401 Y-10.33 I0.392 J-1.533
G1 X11.852 Y-10.879
X11.752 Y-10.99
X11.665 Y-11.113
X11.597 Y-11.246
X11.544 Y-11.387
X11.506 Y-11.532
X11.481 Y-11.68
X11.468 Y-11.846
X11.467 Y-12.018
X11.483 Y-12.215
X11.516 Y-12.423
X11.57 Y-12.646
X11.653 Y-12.895
X11.758 Y-13.144
X11.903 Y-13.422
X12.086 Y-13.713
X12.299 Y-13.999
X12.572 Y-14.309
X12.91 Y-14.636
X13.28 Y-14.941
X13.727 Y-15.253
X14.255 Y-15.561
X14.868 Y-15.855
X15.542 Y-16.115
X16.234 Y-16.32
X16.94 Y-16.474
X17.654 Y-16.582
X18.373 Y-16.647
X19.094 Y-16.672
X19.816 Y-16.662
X20.537 Y-16.617
X21.255 Y-16.542
X21.969 Y-16.438
X22.679 Y-16.307
X23.384 Y-16.151
X24.084 Y-15.972
X24.777 Y-15.771
X25.464 Y-15.549
X26.145 Y-15.309
X26.819 Y-15.049
X27.331 Y-14.824
X27.644 Y-14.655
X27.681 Y-14.631
X27.814 Y-14.519
X27.915 Y-14.378
X27.978 Y-14.216
X28. Y-14.044
Y-12.762
G0 Z5.
X12.832 Y-10.429
Z-5.361
G1 Z-5.661 F1000
X12.825 Y-10.43 Z-5.727
X12.804 Y-10.436 Z-5.791
X12.769 Y-10.445 Z-5.848
X12.723 Y-10.456 Z-5.895
X12.668 Y-10.47 Z-5.931
X12.606 Y-10.486 Z-5.953
X12.542 Y-10.502 Z-5.961
G3 X11.852 Y-10.879 I0.39 J-1.534
G1 X11.581 Y-11.15
X11.478 Y-11.249
X11.222 Y-11.478
X11.111 Y-11.578
X11.025 Y-11.701
X10.956 Y-11.834
X10.901 Y-11.974
X10.86 Y-12.118
X10.83 Y-12.272
X10.81 Y-12.44
X10.804 Y-12.631
X10.813 Y-12.832
X10.842 Y-13.064
X10.892 Y-13.299
X10.969 Y-13.561
X11.078 Y-13.843
X11.215 Y-14.129
X11.402 Y-14.45
X11.634 Y-14.782
X11.9 Y-15.106
X12.235 Y-15.452
X12.645 Y-15.812
X13.118 Y-16.165
X13.644 Y-16.495
X14.268 Y-16.82
X14.933 Y-17.101
X15.617 Y-17.332
X16.316 Y-17.515
X17.024 Y-17.654
X17.74 Y-17.751
X18.459 Y-17.811
X19.181 Y-17.834
X19.903 Y-17.824
X20.623 Y-17.781
X21.342 Y-17.709
X22.057 Y-17.609
X22.768 Y-17.483
X23.474 Y-17.334
X24.175 Y-17.162
X24.871 Y-16.969
X25.561 Y-16.756
X26.245 Y-16.524
X26.921 Y-16.27
X27.366 Y-16.076
X27.64 Y-15.929
X27.679 Y-15.904
X27.813 Y-15.792
X27.915 Y-15.651
X27.978 Y-15.489
X28. Y-15.316
Y-14.044
G0 Z5.
X12.27 Y-11.221
Z-5.361
G1 Z-5.661 F1000
X12.262 Z-5.727
X12.24 Y-11.222 Z-5.791
X12.205 Y-11.225 Z-5.848
X12.157 Y-11.227 Z-5.895
X12.1 Y-11.231 Z-5.931
X12.037 Y-11.234 Z-5.953
X11.97 Y-11.238 Z-5.961
G3 X11.222 Y-11.478 I0.093 J-1.58
G1 X11.15 Y-11.527
X10.986 Y-11.627
X10.732 Y-11.757
X10.602 Y-11.832
X10.49 Y-11.932
X10.393 Y-12.046
X10.311 Y-12.172
X10.242 Y-12.305
X10.185 Y-12.444
X10.138 Y-12.596
X10.101 Y-12.763
X10.074 Y-12.955
X10.062 Y-13.155
X10.067 Y-13.387
X10.091 Y-13.627
X10.14 Y-13.894
X10.219 Y-14.191
X10.325 Y-14.488
X10.471 Y-14.813
X10.666 Y-15.168
X10.896 Y-15.516
X11.186 Y-15.887
X11.547 Y-16.28
X11.978 Y-16.679
X12.458 Y-17.057
X13.013 Y-17.425
X13.645 Y-17.775
X14.302 Y-18.075
X14.978 Y-18.328
X15.669 Y-18.536
X16.371 Y-18.704
X17.082 Y-18.831
X17.798 Y-18.922
X18.518 Y-18.977
X19.24 Y-18.999
X19.962 Y-18.989
X20.683 Y-18.948
X21.401 Y-18.88
X22.117 Y-18.785
X22.829 Y-18.665
X23.537 Y-18.522
X24.24 Y-18.358
X24.938 Y-18.173
X25.63 Y-17.969
X26.317 Y-17.745
X26.995 Y-17.497
X27.395 Y-17.323
X27.652 Y-17.185
X27.679 Y-17.167
X27.813 Y-17.056
X27.915 Y-16.914
X27.978 Y-16.752
X28. Y-16.579
Y-15.316
G0 Z5.
X11.803 Y-11.629
Z-5.361
G1 Z-5.661 F1000
X11.795 Y-11.628 Z-5.727
X11.773 Y-11.627 Z-5.791
X11.737 Y-11.625 Z-5.848
X11.69 Y-11.622 Z-5.895
X11.633 Y-11.618 Z-5.931
X11.57 Y-11.614 Z-5.953
X11.503 Y-11.61 Z-5.961
G3 X10.732 Y-11.757 I-0.099 J-1.579
G1 X10.035 Y-12.113
X9.905 Y-12.187
X9.789 Y-12.282
X9.686 Y-12.391
X9.596 Y-12.511
X9.519 Y-12.64
X9.453 Y-12.775
X9.392 Y-12.932
X9.342 Y-13.098
X9.3 Y-13.294
X9.273 Y-13.506
X9.261 Y-13.736
X9.269 Y-14.
X9.299 Y-14.269
X9.359 Y-14.574
X9.452 Y-14.908
X9.574 Y-15.241
X9.743 Y-15.607
X9.968 Y-16.007
X10.24 Y-16.41
X10.568 Y-16.821
X10.969 Y-17.249
X11.448 Y-17.682
X12.006 Y-18.112
X12.612 Y-18.505
X13.245 Y-18.851
X13.902 Y-19.151
X14.577 Y-19.407
X15.267 Y-19.622
X15.967 Y-19.798
X16.675 Y-19.938
X17.389 Y-20.043
X18.108 Y-20.114
X18.829 Y-20.154
X19.551 Y-20.163
X20.272 Y-20.143
X20.993 Y-20.095
X21.711 Y-20.022
X22.426 Y-19.923
X23.138 Y-19.802
X23.846 Y-19.659
X24.549 Y-19.495
X25.247 Y-19.31
X25.94 Y-19.107
X26.626 Y-18.883
X27.194 Y-18.668
X27.522 Y-18.513
X27.649 Y-18.439
X27.794 Y-18.328
X27.906 Y-18.183
X27.976 Y-18.014
X28. Y-17.832
Y-16.579
G0 Z5.
X11.107 Y-11.987
Z-5.361
G1 Z-5.661 F1000
X11.099 Z-5.727
X11.077 Y-11.985 Z-5.791
X11.041 Y-11.983 Z-5.848
X10.994 Y-11.98 Z-5.895
X10.937 Y-11.976 Z-5.931
X10.874 Y-11.972 Z-5.953
X10.807 Y-11.968 Z-5.961
G3 X10.035 Y-12.113 I-0.103 J-1.579
G1 X9.51 Y-12.376
X9.346 Y-12.443
X9.207 Y-12.499
X9.082 Y-12.582
X8.97 Y-12.682
X8.87 Y-12.794
X8.782 Y-12.915
X8.705 Y-13.044
X8.631 Y-13.193
X8.567 Y-13.354
X8.508 Y-13.547
X8.463 Y-13.749
X8.431 Y-13.987
X8.416 Y-14.242
X8.423 Y-14.518
X8.456 Y-14.834
X8.516 Y-15.158
X8.613 Y-15.515
X8.755 Y-15.91
X8.941 Y-16.32
X9.17 Y-16.733
X9.468 Y-17.182
X9.84 Y-17.655
X10.292 Y-18.142
X10.796 Y-18.606
X11.365 Y-19.05
X11.967 Y-19.449
X12.595 Y-19.804
X13.246 Y-20.118
X13.914 Y-20.391
X14.596 Y-20.626
X15.291 Y-20.825
X15.994 Y-20.989
X16.704 Y-21.12
X17.419 Y-21.218
X18.138 Y-21.286
X18.859 Y-21.324
X19.581 Y-21.333
X20.303 Y-21.314
X21.023 Y-21.269
X21.742 Y-21.199
X22.458 Y-21.106
X23.17 Y-20.99
X23.879 Y-20.854
X24.584 Y-20.697
X25.284 Y-20.52
X25.979 Y-20.324
X26.667 Y-20.106
X27.192 Y-19.911
X27.515 Y-19.76
X27.646 Y-19.686
X27.792 Y-19.575
X27.905 Y-19.43
X27.976 Y-19.26
X28. Y-19.077
Y-17.832
G0 Z5.
X10.424 Y-12.492
Z-5.361
G1 Z-5.661 F1000
X10.416 Y-12.49 Z-5.727
X10.395 Y-12.485 Z-5.791
X10.36 Y-12.477 Z-5.848
X10.314 Y-12.466 Z-5.895
X10.258 Y-12.454 Z-5.931
X10.196 Y-12.439 Z-5.953
X10.131 Y-12.424 Z-5.961
G3 X9.346 Y-12.443 I-0.357 J-1.542
G1 X9.182 Y-12.495
X9.018 Y-12.537
X8.764 Y-12.579
X8.617 Y-12.61
X8.478 Y-12.666
X8.349 Y-12.743
X8.23 Y-12.834
X8.123 Y-12.939
X8.025 Y-13.052
X7.933 Y-13.18
X7.846 Y-13.324
X7.764 Y-13.488
X7.687 Y-13.679
X7.623 Y-13.885
X7.569 Y-14.126
X7.533 Y-14.381
X7.516 Y-14.667
X7.522 Y-14.994
X7.556 Y-15.328
X7.624 Y-15.701
X7.733 Y-16.11
X7.886 Y-16.54
X8.082 Y-16.977
X8.346 Y-17.458
X8.684 Y-17.973
X9.096 Y-18.5
X9.566 Y-19.012
X10.096 Y-19.503
X10.662 Y-19.951
X11.259 Y-20.357
X11.881 Y-20.724
X12.524 Y-21.052
X13.184 Y-21.344
X13.86 Y-21.6
X14.547 Y-21.821
X15.244 Y-22.01
X15.948 Y-22.166
X16.659 Y-22.292
X17.375 Y-22.388
X18.094 Y-22.455
X18.815 Y-22.493
X19.537 Y-22.504
X20.259 Y-22.488
X20.98 Y-22.448
X21.699 Y-22.384
X22.415 Y-22.298
X23.129 Y-22.19
X23.84 Y-22.061
X24.546 Y-21.913
X25.249 Y-21.746
X25.946 Y-21.559
X26.637 Y-21.349
X27.167 Y-21.158
X27.495 Y-21.009
X27.64 Y-20.929
X27.789 Y-20.818
X27.903 Y-20.672
X27.975 Y-20.501
X28. Y-20.317
Y-19.077
G0 Z5.
X9.822 Y-12.791
Z-5.361
G1 Z-5.661 F1000
X9.815 Y-12.788 Z-5.727
X9.794 Y-12.78 Z-5.791
X9.761 Y-12.767 Z-5.848
X9.717 Y-12.749 Z-5.895
X9.664 Y-12.728 Z-5.931
X9.605 Y-12.704 Z-5.953
X9.543 Y-12.68 Z-5.961
G3 X8.764 Y-12.579 I-0.586 J-1.47
G1 X7.985 Y-12.702
X7.838 Y-12.733
X7.698 Y-12.786
X7.565 Y-12.857
X7.442 Y-12.943
X7.329 Y-13.041
X7.224 Y-13.148
X7.12 Y-13.274
X7.02 Y-13.419
X6.924 Y-13.584
X6.83 Y-13.779
X6.75 Y-13.988
X6.677 Y-14.235
X6.621 Y-14.502
X6.584 Y-14.795
X6.569 Y-15.135
X6.581 Y-15.492
X6.626 Y-15.877
X6.71 Y-16.304
X6.843 Y-16.773
X7.018 Y-17.241
X7.255 Y-17.75
X7.567 Y-18.299
X7.954 Y-18.867
X8.406 Y-19.43
X8.902 Y-19.955
X9.435 Y-20.442
X10.002 Y-20.889
X10.596 Y-21.299
X11.214 Y-21.672
X11.852 Y-22.01
X12.507 Y-22.314
X13.177 Y-22.584
X13.858 Y-22.823
X14.55 Y-23.03
X15.25 Y-23.207
X15.956 Y-23.355
X16.668 Y-23.474
X17.385 Y-23.565
X18.104 Y-23.629
X18.825 Y-23.666
X19.547 Y-23.677
X20.269 Y-23.663
X20.99 Y-23.625
X21.709 Y-23.565
X22.426 Y-23.483
X23.141 Y-23.38
X23.853 Y-23.257
X24.561 Y-23.115
X25.264 Y-22.955
X25.964 Y-22.775
X26.656 Y-22.571
X27.162 Y-22.392
X27.487 Y-22.246
X27.636 Y-22.164
X27.787 Y-22.053
X27.902 Y-21.907
X27.975 Y-21.735
X28. Y-21.55
Y-20.317
G0 Z5.
X9.042 Y-12.914
Z-5.361
G1 Z-5.661 F1000
X9.035 Y-12.911 Z-5.727
X9.015 Y-12.903 Z-5.791
X8.982 Y-12.89 Z-5.848
X8.937 Y-12.872 Z-5.895
X8.885 Y-12.851 Z-5.931
X8.826 Y-12.828 Z-5.953
X8.764 Y-12.803 Z-5.961
G3 X7.985 Y-12.702 I-0.586 J-1.47
G1 X7.379 Y-12.797
X7.248 Y-12.8
X7.098 Y-12.81
X6.953 Y-12.847
X6.814 Y-12.904
X6.683 Y-12.977
X6.56 Y-13.063
X6.446 Y-13.16
X6.331 Y-13.276
X6.22 Y-13.406
X6.105 Y-13.566
X6.001 Y-13.739
X5.896 Y-13.949
X5.803 Y-14.18
X5.723 Y-14.439
X5.655 Y-14.741
X5.61 Y-15.059
X5.588 Y-15.415
X5.596 Y-15.824
X5.64 Y-16.256
X5.722 Y-16.705
X5.855 Y-17.205
X6.05 Y-17.753
X6.312 Y-18.337
X6.626 Y-18.911
X7.023 Y-19.514
X7.467 Y-20.083
X7.952 Y-20.618
X8.472 Y-21.119
X9.023 Y-21.585
X9.602 Y-22.017
X10.204 Y-22.415
X10.827 Y-22.78
X11.468 Y-23.113
X12.124 Y-23.414
X12.793 Y-23.685
X13.475 Y-23.924
X14.165 Y-24.134
X14.864 Y-24.316
X15.57 Y-24.47
X16.28 Y-24.597
X16.995 Y-24.697
X17.713 Y-24.772
X18.434 Y-24.821
X19.155 Y-24.845
X19.877 Y-24.846
X20.599 Y-24.823
X21.32 Y-24.778
X22.039 Y-24.712
X22.755 Y-24.626
X23.469 Y-24.52
X24.181 Y-24.395
X24.888 Y-24.251
X25.592 Y-24.089
X26.29 Y-23.906
X26.971 Y-23.695
X27.355 Y-23.541
X27.602 Y-23.418
X27.661 Y-23.383
X27.802 Y-23.271
X27.909 Y-23.127
X27.977 Y-22.961
X28. Y-22.783
Y-21.55
G0 Z5.
X8.267 Y-13.153
Z-5.361
G1 Z-5.661 F1000
X8.26 Y-13.149 Z-5.727
X8.241 Y-13.138 Z-5.791
X8.21 Y-13.12 Z-5.848
X8.169 Y-13.097 Z-5.895
X8.119 Y-13.069 Z-5.931
X8.064 Y-13.038 Z-5.953
X8.006 Y-13.005 Z-5.961
G3 X7.248 Y-12.8 I-0.78 J-1.377
G1 X7.215
X6.887 Y-12.795
X6.815 Y-12.789
X6.632 Y-12.761
X6.483 Y-12.745
X6.334 Y-12.754
X6.187 Y-12.786
X6.046 Y-12.835
X5.91 Y-12.901
X5.782 Y-12.978
X5.66 Y-13.068
X5.53 Y-13.18
X5.405 Y-13.306
X5.273 Y-13.464
X5.15 Y-13.637
X5.027 Y-13.842
X4.911 Y-14.079
X4.809 Y-14.335
X4.716 Y-14.639
X4.642 Y-14.975
X4.593 Y-15.335
X4.57 Y-15.743
X4.582 Y-16.201
X4.631 Y-16.673
X4.728 Y-17.189
X4.884 Y-17.763
X5.103 Y-18.371
X5.394 Y-19.011
X5.744 Y-19.642
X6.143 Y-20.244
X6.586 Y-20.814
X7.066 Y-21.353
X7.579 Y-21.861
X8.122 Y-22.337
X8.691 Y-22.782
X9.282 Y-23.196
X9.893 Y-23.58
X10.523 Y-23.934
X11.168 Y-24.258
X11.827 Y-24.553
X12.498 Y-24.819
X13.18 Y-25.056
X13.871 Y-25.266
X14.569 Y-25.449
X15.274 Y-25.605
X15.984 Y-25.735
X16.699 Y-25.841
X17.416 Y-25.921
X18.136 Y-25.978
X18.857 Y-26.011
X19.579 Y-26.022
X20.301 Y-26.01
X21.022 Y-25.977
X21.742 Y-25.923
X22.46 Y-25.849
X23.176 Y-25.756
X23.89 Y-25.644
X24.6 Y-25.515
X25.307 Y-25.366
X26.009 Y-25.199
X26.705 Y-25.006
X27.186 Y-24.837
X27.499 Y-24.697
X27.635 Y-24.623
X27.786 Y-24.512
X27.902 Y-24.366
X27.975 Y-24.194
X28. Y-24.008
Y-22.783
G0 Z5.
X7.573 Y-13.289
Z-5.361
G1 Z-5.661 F1000
X7.567 Y-13.284 Z-5.727
X7.55 Y-13.27 Z-5.791
X7.523 Y-13.247 Z-5.848
X7.486 Y-13.217 Z-5.895
X7.442 Y-13.18 Z-5.931
X7.394 Y-13.14 Z-5.953
X7.342 Y-13.097 Z-5.961
G3 X6.632 Y-12.761 I-1.011 J-1.217
G1 X5.835 Y-12.634
X5.685 Y-12.618
X5.536 Y-12.627
X5.389 Y-12.656
X5.246 Y-12.701
X5.108 Y-12.761
X4.976 Y-12.832
X4.84 Y-12.921
X4.697 Y-13.032
X4.558 Y-13.158
X4.409 Y-13.318
X4.269 Y-13.494
X4.127 Y-13.705
X3.989 Y-13.951
X3.868 Y-14.215
X3.754 Y-14.528
X3.655 Y-14.886
X3.583 Y-15.26
X3.536 Y-15.687
X3.522 Y-16.166
X3.55 Y-16.691
X3.621 Y-17.226
X3.749 Y-17.825
X3.946 Y-18.476
X4.209 Y-19.148
X4.524 Y-19.798
X4.886 Y-20.422
X5.291 Y-21.02
X5.735 Y-21.59
X6.214 Y-22.13
X6.724 Y-22.641
X7.261 Y-23.123
X7.822 Y-23.577
X8.406 Y-24.003
X9.009 Y-24.4
X9.629 Y-24.769
X10.265 Y-25.11
X10.915 Y-25.425
X11.578 Y-25.711
X12.251 Y-25.972
X12.934 Y-26.206
X13.626 Y-26.413
X14.324 Y-26.595
X15.029 Y-26.752
X15.739 Y-26.884
X16.453 Y-26.992
X17.17 Y-27.077
X17.889 Y-27.139
X18.61 Y-27.178
X19.332 Y-27.196
X20.054 Y-27.192
X20.776 Y-27.168
X21.496 Y-27.124
X22.215 Y-27.06
X22.933 Y-26.978
X23.648 Y-26.878
X24.36 Y-26.759
X25.069 Y-26.623
X25.774 Y-26.468
X26.474 Y-26.29
X27.054 Y-26.106
X27.405 Y-25.963
X27.636 Y-25.846
X27.665 Y-25.828
X27.804 Y-25.717
X27.91 Y-25.573
X27.977 Y-25.408
X28. Y-25.231
Y-24.008
G0 Z5.
X6.775 Y-13.163
Z-5.361
G1 Z-5.661 F1000
X6.769 Y-13.158 Z-5.727
X6.752 Y-13.144 Z-5.791
X6.725 Y-13.121 Z-5.848
X6.688 Y-13.09 Z-5.895
X6.644 Y-13.054 Z-5.931
X6.596 Y-13.014 Z-5.953
X6.544 Y-12.971 Z-5.961
G3 X5.835 Y-12.634 I-1.012 J-1.217
G1 X5.247 Y-12.541
X5.083 Y-12.498
X4.938 Y-12.46
X4.788 Y-12.455
X4.639 Y-12.471
X4.493 Y-12.505
X4.35 Y-12.552
X4.213 Y-12.612
X4.065 Y-12.692
X3.919 Y-12.786
X3.76 Y-12.909
X3.607 Y-13.048
X3.446 Y-13.219
X3.285 Y-13.421
X3.131 Y-13.648
X2.978 Y-13.919
X2.838 Y-14.223
X2.715 Y-14.557
X2.605 Y-14.95
X2.518 Y-15.396
X2.466 Y-15.857
X2.45 Y-16.371
X2.478 Y-16.947
X2.56 Y-17.582
X2.704 Y-18.259
X2.908 Y-18.943
X3.169 Y-19.616
X3.479 Y-20.268
X3.833 Y-20.898
X4.226 Y-21.503
X4.656 Y-22.084
X5.118 Y-22.638
X5.61 Y-23.166
X6.129 Y-23.668
X6.673 Y-24.144
X7.238 Y-24.593
X7.823 Y-25.015
X8.427 Y-25.411
X9.047 Y-25.781
X9.682 Y-26.124
X10.331 Y-26.442
X10.991 Y-26.734
X11.662 Y-27.
X12.342 Y-27.242
X13.031 Y-27.46
X13.727 Y-27.652
X14.429 Y-27.821
X15.136 Y-27.967
X15.269 Y-27.99
X15.308 Y-27.995
X15.348 Y-27.999
X15.388 Y-28.
X22.792
X23.513 Y-27.964
X24.233 Y-27.915
X24.948 Y-27.817
X25.658 Y-27.686
X26.362 Y-27.523
X26.986 Y-27.34
X27.338 Y-27.206
X27.588 Y-27.087
X27.651 Y-27.05
X27.796 Y-26.939
X27.907 Y-26.794
X27.976 Y-26.625
X28. Y-26.445
G3 X27.69 Y-26.155 Z-5.761 I-0.3 J-0.01
G1 X27.626 Y-26.164
X27.423 Y-26.216
X22.728 Y-27.409
G3 X22.502 Y-27.69 I0.074 J-0.291
X22.792 Y-28. Z-5.961 I0.3 J-0.01
G1 X27.055
X27.253 Y-27.99
X27.402 Y-27.971
X27.449 Y-27.96
X27.626 Y-27.896
X27.781 Y-27.785
X27.899 Y-27.638
X27.974 Y-27.464
X28. Y-27.276
G3 X27.69 Y-26.987 Z-5.761 I-0.3 J-0.01
G1 X27.636 Y-26.994
X27.584 Y-27.01
X27.537 Y-27.035
X27.444 Y-27.096
X26.901 Y-27.449
G3 X26.765 Y-27.69 I0.164 J-0.251
X27.055 Y-28. Z-5.961 I0.3 J-0.01
G1 X27.547
X27.711 Y-27.998
X27.752 Y-27.991
X27.793 Y-27.978
X27.834 Y-27.958
X27.874 Y-27.929
X27.929 Y-27.874
X27.958 Y-27.834
X27.978 Y-27.793
X27.991 Y-27.752
X27.998 Y-27.711
X28. Y-27.547
Y-25.231
G0 Z5.
X5.92 Y-13.178
Z-5.361
G1 Z-5.661 F1000
X5.916 Y-13.172 Z-5.727
X5.901 Y-13.155 Z-5.791
X5.878 Y-13.128 Z-5.848
X5.847 Y-13.092 Z-5.895
X5.81 Y-13.049 Z-5.931
X5.769 Y-13. Z-5.953
X5.725 Y-12.95 Z-5.961
G3 X5.083 Y-12.498 I-1.203 J-1.028
G1 X4.755 Y-12.387
X4.533 Y-12.274
X4.396 Y-12.213
X4.25 Y-12.177
X4.101 Y-12.164
X3.951 Y-12.169
X3.803 Y-12.191
X3.657 Y-12.226
X3.508 Y-12.277
X3.355 Y-12.343
X3.194 Y-12.428
X3.022 Y-12.538
X2.851 Y-12.667
X2.668 Y-12.831
X2.491 Y-13.016
X2.313 Y-13.236
X2.131 Y-13.502
X1.966 Y-13.789
X1.806 Y-14.128
X1.659 Y-14.519
X1.535 Y-14.952
X1.442 Y-15.41
X1.379 Y-15.937
X1.357 Y-16.532
X1.384 Y-17.189
X1.467 Y-17.867
X1.611 Y-18.568
X1.812 Y-19.261
X2.064 Y-19.938
X2.361 Y-20.596
X2.698 Y-21.234
X3.073 Y-21.851
X3.483 Y-22.446
X3.924 Y-23.017
X4.394 Y-23.565
X4.891 Y-24.089
X5.413 Y-24.588
X5.956 Y-25.063
X6.521 Y-25.513
X7.105 Y-25.937
X7.707 Y-26.337
X8.324 Y-26.712
X8.955 Y-27.062
X9.599 Y-27.388
X10.255 Y-27.69
X10.868 Y-27.946
X10.955 Y-27.976
X11.046 Y-27.994
X11.138 Y-28.
X15.388
G0 Z5.
X5.265 Y-13.066
Z-5.361
G1 Z-5.661 F1000
X5.261 Y-13.06 Z-5.727
X5.249 Y-13.041 Z-5.791
X5.23 Y-13.011 Z-5.848
X5.205 Y-12.971 Z-5.895
X5.174 Y-12.923 Z-5.931
X5.14 Y-12.869 Z-5.953
X5.105 Y-12.813 Z-5.961
G3 X4.533 Y-12.274 I-1.337 J-0.847
G1 X3.844 Y-11.924
X3.708 Y-11.863
X3.563 Y-11.821
X3.415 Y-11.8
X3.265 Y-11.797
X3.115 Y-11.809
X2.968 Y-11.834
X2.81 Y-11.875
X2.647 Y-11.932
X2.473 Y-12.009
X2.287 Y-12.109
X2.1 Y-12.23
X1.899 Y-12.385
X1.702 Y-12.564
X1.501 Y-12.778
X1.292 Y-13.04
X1.098 Y-13.328
X0.909 Y-13.663
X0.73 Y-14.05
X0.567 Y-14.495
X0.437 Y-14.962
X0.333 Y-15.498
X0.265 Y-16.11
X0.244 Y-16.78
X0.279 Y-17.496
X0.373 Y-18.212
X0.522 Y-18.918
X0.722 Y-19.612
X0.968 Y-20.291
X1.256 Y-20.953
X1.582 Y-21.597
X1.943 Y-22.222
X2.337 Y-22.827
X2.761 Y-23.412
X3.213 Y-23.975
X3.691 Y-24.516
X4.193 Y-25.035
X4.717 Y-25.531
X5.263 Y-26.004
X5.828 Y-26.453
X6.412 Y-26.878
X7.011 Y-27.28
X7.626 Y-27.659
X8.069 Y-27.909
X8.179 Y-27.959
X8.295 Y-27.99
X8.414 Y-28.
X11.138
G0 Z5.
X4.576 Y-12.717
Z-5.361
G1 Z-5.661 F1000
X4.572 Y-12.711 Z-5.727
X4.56 Y-12.692 Z-5.791
X4.541 Y-12.662 Z-5.848
X4.515 Y-12.622 Z-5.895
X4.485 Y-12.573 Z-5.931
X4.451 Y-12.52 Z-5.953
X4.415 Y-12.463 Z-5.961
G3 X3.844 Y-11.924 I-1.338 J-0.845
G1 X3.607 Y-11.802
X3.279 Y-11.631
X3.115 Y-11.54
X2.984 Y-11.467
X2.841 Y-11.421
X2.694 Y-11.395
X2.544 Y-11.385
X2.394 Y-11.39
X2.245 Y-11.408
X2.082 Y-11.441
X1.908 Y-11.491
X1.726 Y-11.56
X1.524 Y-11.655
X1.325 Y-11.77
X1.108 Y-11.919
X0.888 Y-12.098
X0.669 Y-12.308
X0.438 Y-12.568
X0.213 Y-12.865
X-0.001 Y-13.202
X-0.209 Y-13.596
X-0.406 Y-14.053
X-0.574 Y-14.553
X-0.711 Y-15.1
X-0.816 Y-15.729
X-0.875 Y-16.428
X-0.878 Y-17.15
X-0.825 Y-17.87
X-0.721 Y-18.585
X-0.568 Y-19.29
X-0.367 Y-19.984
X-0.124 Y-20.664
X0.157 Y-21.329
X0.474 Y-21.977
X0.824 Y-22.609
X1.205 Y-23.222
X1.615 Y-23.816
X2.052 Y-24.391
X2.514 Y-24.946
X2.999 Y-25.481
X3.507 Y-25.994
X4.035 Y-26.487
X4.582 Y-26.957
X5.148 Y-27.405
X5.732 Y-27.831
X5.805 Y-27.881
X5.927 Y-27.946
X6.059 Y-27.986
X6.196 Y-28.
X8.414
G0 Z5.
X3.748 Y-12.414
Z-5.361
G1 Z-5.661 F1000
X3.744 Y-12.407 Z-5.727
X3.735 Y-12.387 Z-5.791
X3.719 Y-12.354 Z-5.848
X3.699 Y-12.312 Z-5.895
X3.675 Y-12.26 Z-5.931
X3.647 Y-12.203 Z-5.953
X3.619 Y-12.143 Z-5.961
G3 X3.115 Y-11.54 I-1.429 J-0.681
G1 X3.023 Y-11.478
X2.505 Y-11.111
X2.378 Y-11.03
X2.24 Y-10.971
X2.095 Y-10.931
X1.947 Y-10.908
X1.798 Y-10.899
X1.644 Y-10.903
X1.48 Y-10.921
X1.303 Y-10.955
X1.108 Y-11.009
X0.911 Y-11.081
X0.688 Y-11.183
X0.468 Y-11.306
X0.231 Y-11.465
X-0.02 Y-11.665
X-0.26 Y-11.889
X-0.511 Y-12.165
X-0.771 Y-12.5
X-1.012 Y-12.87
X-1.241 Y-13.291
X-1.457 Y-13.78
X-1.654 Y-14.342
X-1.821 Y-14.976
X-1.938 Y-15.635
X-2.007 Y-16.353
X-2.02 Y-17.075
X-1.981 Y-17.796
X-1.895 Y-18.513
X-1.762 Y-19.223
X-1.587 Y-19.923
X-1.372 Y-20.612
X-1.119 Y-21.289
X-0.831 Y-21.951
X-0.511 Y-22.598
X-0.161 Y-23.229
X0.22 Y-23.843
X0.627 Y-24.439
X1.06 Y-25.017
X1.517 Y-25.576
X1.996 Y-26.116
X2.496 Y-26.637
X3.016 Y-27.138
X3.555 Y-27.618
X3.822 Y-27.839
X3.957 Y-27.927
X4.108 Y-27.982
X4.268 Y-28.
X6.196
G0 Z5.
X3.114 Y-12.001
Z-5.361
G1 Z-5.661 F1000
X3.111 Y-11.994 Z-5.727
X3.102 Y-11.974 Z-5.791
X3.087 Y-11.941 Z-5.848
X3.068 Y-11.898 Z-5.895
X3.045 Y-11.846 Z-5.931
X3.019 Y-11.788 Z-5.953
X2.992 Y-11.727 Z-5.961
G3 X2.505 Y-11.111 I-1.446 J-0.643
G1 X1.804 Y-10.615
X1.677 Y-10.534
X1.541 Y-10.471
X1.398 Y-10.426
X1.251 Y-10.397
X1.102 Y-10.382
X0.95 Y-10.379
X0.778 Y-10.39
X0.595 Y-10.417
X0.396 Y-10.462
X0.178 Y-10.531
X-0.042 Y-10.62
X-0.289 Y-10.744
X-0.537 Y-10.895
X-0.799 Y-11.085
X-1.079 Y-11.324
X-1.351 Y-11.596
X-1.622 Y-11.916
X-1.9 Y-12.303
X-2.176 Y-12.76
X-2.422 Y-13.254
X-2.649 Y-13.82
X-2.848 Y-14.459
X-3.007 Y-15.164
X-3.109 Y-15.878
X-3.158 Y-16.599
X-3.159 Y-17.321
X-3.113 Y-18.041
X-3.024 Y-18.758
X-2.892 Y-19.467
X-2.72 Y-20.169
X-2.51 Y-20.86
X-2.266 Y-21.539
X-1.99 Y-22.206
X-1.682 Y-22.859
X-1.346 Y-23.498
X-0.981 Y-24.121
X-0.59 Y-24.728
X-0.175 Y-25.318
X0.264 Y-25.892
X0.725 Y-26.448
X1.207 Y-26.985
X1.708 Y-27.505
X2.019 Y-27.804
X2.162 Y-27.911
X2.328 Y-27.977
X2.504 Y-28.
X4.268
G0 Z5.
X2.291 Y-11.351
Z-5.361
G1 Z-5.661 F1000
X2.288 Y-11.344 Z-5.727
X2.279 Y-11.324 Z-5.791
X2.264 Y-11.291 Z-5.848
X2.245 Y-11.248 Z-5.895
X2.222 Y-11.196 Z-5.931
X2.196 Y-11.138 Z-5.953
X2.169 Y-11.077 Z-5.961
G3 X1.804 Y-10.615 I-1.085 J-0.482
G1 X1.633 Y-10.494
X1.476 Y-10.38
X1.148 Y-10.109
X1.028 Y-10.019
X0.896 Y-9.947
X0.756 Y-9.893
X0.611 Y-9.854
X0.463 Y-9.829
X0.313 Y-9.817
X0.138
X-0.042 Y-9.831
X-0.25 Y-9.865
X-0.462 Y-9.917
X-0.701 Y-9.996
X-0.952 Y-10.103
X-1.211 Y-10.238
X-1.496 Y-10.417
X-1.782 Y-10.632
X-2.075 Y-10.889
X-2.388 Y-11.214
X-2.702 Y-11.597
X-2.991 Y-12.013
X-3.279 Y-12.507
X-3.554 Y-13.082
X-3.805 Y-13.737
X-4.009 Y-14.43
X-4.159 Y-15.136
X-4.258 Y-15.851
X-4.308 Y-16.572
X-4.312 Y-17.294
X-4.273 Y-18.015
X-4.194 Y-18.732
X-4.076 Y-19.444
X-3.92 Y-20.15
X-3.73 Y-20.846
X-3.506 Y-21.532
X-3.251 Y-22.208
X-2.966 Y-22.871
X-2.653 Y-23.522
X-2.313 Y-24.159
X-1.947 Y-24.781
X-1.556 Y-25.388
X-1.141 Y-25.979
X-0.704 Y-26.554
X-0.247 Y-27.112
X0.231 Y-27.654
X0.352 Y-27.782
X0.499 Y-27.9
X0.672 Y-27.975
X0.86 Y-28.
X2.504
G0 Z5.
X1.688 Y-11.042
Z-5.361
G1 Z-5.661 F1000
X1.686 Y-11.035 Z-5.727
X1.678 Y-11.014 Z-5.791
X1.666 Y-10.981 Z-5.848
X1.65 Y-10.936 Z-5.895
X1.631 Y-10.882 Z-5.931
X1.61 Y-10.823 Z-5.953
X1.587 Y-10.76 Z-5.961
G3 X1.148 Y-10.109 I-1.49 J-0.532
G1 X1.038 Y-10.018
X1.022 Y-10.002
X0.959 Y-9.927
X0.949 Y-9.912
X0.859 Y-9.75
X0.781 Y-9.623
X0.682 Y-9.51
X0.565 Y-9.415
X0.437 Y-9.337
X0.301 Y-9.274
X0.159 Y-9.225
X0.014 Y-9.189
X-0.152 Y-9.162
X-0.323 Y-9.149
X-0.522
X-0.73 Y-9.166
X-0.959 Y-9.203
X-1.213 Y-9.266
X-1.468 Y-9.351
X-1.753 Y-9.472
X-2.054 Y-9.63
X-2.357 Y-9.822
X-2.689 Y-10.07
X-3.032 Y-10.374
X-3.358 Y-10.712
X-3.69 Y-11.118
X-4.027 Y-11.605
X-4.358 Y-12.176
X-4.663 Y-12.815
X-4.921 Y-13.49
X-5.125 Y-14.182
X-5.279 Y-14.888
X-5.385 Y-15.602
X-5.447 Y-16.321
X-5.467 Y-17.043
X-5.447 Y-17.765
X-5.389 Y-18.484
X-5.294 Y-19.2
X-5.164 Y-19.91
X-5.001 Y-20.613
X-4.805 Y-21.308
X-4.579 Y-21.994
X-4.324 Y-22.669
X-4.039 Y-23.333
X-3.728 Y-23.985
X-3.392 Y-24.623
X-3.03 Y-25.249
X-2.646 Y-25.86
X-2.239 Y-26.456
X-1.811 Y-27.037
X-1.362 Y-27.603
X-1.231 Y-27.756
X-1.08 Y-27.888
X-0.898 Y-27.971
X-0.7 Y-28.
X0.86
G0 Z5.
X1.02 Y-10.817
Z-5.361
G1 Z-5.661 F1000
X1.021 Y-10.809 Z-5.727
Y-10.787 Z-5.791
X1.023 Y-10.751 Z-5.848
X1.024 Y-10.704 Z-5.895
X1.026 Y-10.647 Z-5.931
X1.028 Y-10.584 Z-5.953
X1.03 Y-10.517 Z-5.961
G3 X0.859 Y-9.75 I-1.582 J0.05
G1 X0.687 Y-9.438
X0.648 Y-9.264
X0.608 Y-9.119
X0.535 Y-8.989
X0.44 Y-8.872
X0.331 Y-8.77
X0.21 Y-8.681
X0.081 Y-8.604
X-0.055 Y-8.541
X-0.201 Y-8.487
X-0.365 Y-8.441
X-0.551 Y-8.404
X-0.745 Y-8.382
X-0.969 Y-8.375
X-1.205 Y-8.386
X-1.461 Y-8.419
X-1.746 Y-8.479
X-2.035 Y-8.565
X-2.349 Y-8.686
X-2.695 Y-8.853
X-3.042 Y-9.056
X-3.393 Y-9.301
X-3.765 Y-9.608
X-4.153 Y-9.984
X-4.538 Y-10.423
X-4.901 Y-10.912
X-5.266 Y-11.495
X-5.599 Y-12.135
X-5.881 Y-12.8
X-6.115 Y-13.483
X-6.302 Y-14.18
X-6.445 Y-14.888
X-6.546 Y-15.603
X-6.606 Y-16.322
X-6.627 Y-17.044
X-6.609 Y-17.766
X-6.556 Y-18.486
X-6.469 Y-19.203
X-6.349 Y-19.915
X-6.197 Y-20.621
X-6.015 Y-21.319
X-5.805 Y-22.01
X-5.566 Y-22.691
X-5.3 Y-23.362
X-5.008 Y-24.023
X-4.691 Y-24.671
X-4.35 Y-25.308
X-3.986 Y-25.932
X-3.601 Y-26.542
X-3.194 Y-27.138
X-2.766 Y-27.72
X-2.739 Y-27.752
X-2.588 Y-27.886
X-2.404 Y-27.971
X-2.205 Y-28.
X-0.7
G0 Z5.
X0.502 Y-10.333
Z-5.361
G1 Z-5.661 F1000
X0.505 Y-10.326 Z-5.727
X0.511 Y-10.305 Z-5.791
X0.523 Y-10.271 Z-5.848
X0.537 Y-10.225 Z-5.895
X0.555 Y-10.171 Z-5.931
X0.575 Y-10.111 Z-5.953
X0.596 Y-10.048 Z-5.961
G3 X0.648 Y-9.264 I-1.504 J0.494
G1 X0.584 Y-8.977
X0.583 Y-8.967
X0.59 Y-8.805
X0.589 Y-8.655
X0.552 Y-8.509
X0.49 Y-8.373
X0.409 Y-8.246
X0.313 Y-8.131
X0.205 Y-8.027
X0.087 Y-7.934
X-0.038 Y-7.852
X-0.183 Y-7.772
X-0.343 Y-7.701
X-0.521 Y-7.638
X-0.727 Y-7.583
X-0.942 Y-7.544
X-1.184 Y-7.52
X-1.454 Y-7.515
X-1.73 Y-7.533
X-2.04 Y-7.577
X-2.38 Y-7.654
X-2.721 Y-7.761
X-3.083 Y-7.907
X-3.474 Y-8.102
X-3.89 Y-8.354
X-4.294 Y-8.645
X-4.713 Y-9.001
X-5.139 Y-9.427
X-5.57 Y-9.934
X-5.991 Y-10.517
X-6.365 Y-11.134
X-6.692 Y-11.778
X-6.973 Y-12.443
X-7.208 Y-13.125
X-7.401 Y-13.821
X-7.553 Y-14.527
X-7.666 Y-15.24
X-7.741 Y-15.958
X-7.779 Y-16.679
X-7.782 Y-17.401
X-7.751 Y-18.123
X-7.688 Y-18.842
X-7.593 Y-19.558
X-7.468 Y-20.269
X-7.313 Y-20.974
X-7.131 Y-21.672
X-6.92 Y-22.363
X-6.683 Y-23.045
X-6.42 Y-23.717
X-6.132 Y-24.38
X-5.821 Y-25.031
X-5.487 Y-25.671
X-5.131 Y-26.299
X-4.754 Y-26.915
X-4.357 Y-27.518
X-4.212 Y-27.715
X-4.058 Y-27.868
X-3.863 Y-27.966
X-3.648 Y-28.
X-2.205
G0 Z5.
X0.173 Y-9.799
Z-5.361
G1 Z-5.661 F1000
X0.177 Y-9.793 Z-5.727
X0.189 Y-9.775 Z-5.791
X0.209 Y-9.745 Z-5.848
X0.235 Y-9.705 Z-5.895
X0.266 Y-9.657 Z-5.931
X0.301 Y-9.604 Z-5.953
X0.337 Y-9.548 Z-5.961
G3 X0.59 Y-8.805 I-1.325 J0.865
G1 X0.603 Y-8.496
X0.646 Y-8.311
X0.673 Y-8.163
X0.667 Y-8.013
X0.634 Y-7.867
X0.581 Y-7.727
X0.511 Y-7.594
X0.427 Y-7.47
X0.331 Y-7.355
X0.224 Y-7.248
X0.105 Y-7.146
X-0.038 Y-7.042
X-0.196 Y-6.946
X-0.377 Y-6.855
X-0.584 Y-6.77
X-0.803 Y-6.701
X-1.051 Y-6.644
X-1.333 Y-6.603
X-1.624 Y-6.584
X-1.943 Y-6.589
X-2.294 Y-6.623
X-2.67 Y-6.69
X-3.051 Y-6.79
X-3.468 Y-6.936
X-3.91 Y-7.131
X-4.372 Y-7.382
X-4.83 Y-7.681
X-5.291 Y-8.037
X-5.771 Y-8.475
X-6.257 Y-8.995
X-6.707 Y-9.56
X-7.112 Y-10.157
X-7.475 Y-10.782
X-7.795 Y-11.429
X-8.073 Y-12.095
X-8.309 Y-12.778
X-8.505 Y-13.472
X-8.664 Y-14.177
X-8.786 Y-14.888
X-8.873 Y-15.605
X-8.926 Y-16.325
X-8.946 Y-17.047
X-8.934 Y-17.769
X-8.891 Y-18.489
X-8.818 Y-19.208
X-8.716 Y-19.922
X-8.586 Y-20.633
X-8.429 Y-21.337
X-8.245 Y-22.035
X-8.034 Y-22.726
X-7.798 Y-23.408
X-7.537 Y-24.082
X-7.253 Y-24.745
X-6.947 Y-25.399
X-6.619 Y-26.042
X-6.27 Y-26.674
X-5.9 Y-27.295
X-5.63 Y-27.71
X-5.617 Y-27.727
X-5.464 Y-27.874
X-5.273 Y-27.968
X-5.063 Y-28.
X-3.648
G0 Z5.
X0.051 Y-9.21
Z-5.361
G1 Z-5.661 F1000
X0.056 Y-9.205 Z-5.727
X0.071 Y-9.189 Z-5.791
X0.096 Y-9.163 Z-5.848
X0.129 Y-9.129 Z-5.895
X0.168 Y-9.088 Z-5.931
X0.212 Y-9.042 Z-5.953
X0.259 Y-8.994 Z-5.961
G3 X0.646 Y-8.311 I-1.14 J1.098
G1 X0.656 Y-8.269
X0.742 Y-8.034
X0.82 Y-7.883
X0.882 Y-7.747
X0.91 Y-7.599
X0.912 Y-7.449
X0.892 Y-7.301
X0.854 Y-7.155
X0.8 Y-7.016
X0.732 Y-6.882
X0.653 Y-6.754
X0.558 Y-6.627
X0.443 Y-6.495
X0.314 Y-6.37
X0.16 Y-6.243
X-0.018 Y-6.118
X-0.212 Y-6.004
X-0.437 Y-5.896
X-0.691 Y-5.797
X-0.958 Y-5.718
X-1.261 Y-5.654
X-1.6 Y-5.61
X-1.959 Y-5.593
X-2.332 Y-5.605
X-2.744 Y-5.651
X-3.19 Y-5.739
X-3.667 Y-5.872
X-4.141 Y-6.047
X-4.635 Y-6.276
X-5.15 Y-6.567
X-5.683 Y-6.928
X-6.23 Y-7.366
X-6.756 Y-7.861
X-7.242 Y-8.395
X-7.688 Y-8.963
X-8.093 Y-9.56
X-8.458 Y-10.183
X-8.785 Y-10.827
X-9.073 Y-11.489
X-9.323 Y-12.166
X-9.537 Y-12.856
X-9.715 Y-13.555
X-9.86 Y-14.263
X-9.971 Y-14.976
X-10.049 Y-15.694
X-10.097 Y-16.414
X-10.113 Y-17.136
X-10.1 Y-17.858
X-10.057 Y-18.579
X-9.986 Y-19.297
X-9.887 Y-20.012
X-9.761 Y-20.723
X-9.61 Y-21.429
X-9.433 Y-22.129
X-9.231 Y-22.822
X-9.005 Y-23.508
X-8.756 Y-24.186
X-8.484 Y-24.855
X-8.191 Y-25.514
X-7.876 Y-26.164
X-7.542 Y-26.804
X-7.187 Y-27.433
X-7.025 Y-27.682
X-6.913 Y-27.814
X-6.772 Y-27.915
X-6.61 Y-27.979
X-6.438 Y-28.
X-5.063
G0 Z5.
X12.161 Y27.625
Z-5.361
G1 Z-5.661 F1000
X12.155 Y27.629 Z-5.727
X12.136 Y27.641 Z-5.791
X12.105 Y27.659 Z-5.848
X12.064 Y27.683 Z-5.895
X12.015 Y27.712 Z-5.931
X11.961 Y27.745 Z-5.953
X11.903 Y27.779 Z-5.961
G3 X11.15 Y28. I-0.809 J-1.36
G1 X8.198
X7.955 Y27.988
X7.685 Y27.952
X7.382 Y27.888
X6.997 Y27.772
X6.558 Y27.601
X6.025 Y27.343
X5.403 Y26.977
X4.811 Y26.563
X4.247 Y26.113
X3.708 Y25.632
X3.195 Y25.125
X2.706 Y24.593
X2.244 Y24.038
X1.809 Y23.462
X1.402 Y22.865
X1.024 Y22.25
X0.675 Y21.618
X0.355 Y20.971
X0.065 Y20.31
X-0.194 Y19.636
X-0.421 Y18.951
X-0.616 Y18.255
X-0.778 Y17.552
X-0.907 Y16.841
X-1.002 Y16.126
X-1.064 Y15.406
X-1.092 Y14.685
X-1.086 Y13.963
X-1.045 Y13.242
X-0.971 Y12.524
X-0.864 Y11.81
X-0.725 Y11.102
X-0.553 Y10.4
X-0.351 Y9.707
X-0.116 Y9.024
X0.116 Y8.44
X0.16 Y8.351
X0.217 Y8.27
X0.286 Y8.198
X0.576 Y7.87
X0.634 Y7.776
X0.722 Y7.543
X1.01 Y6.88
X1.167 Y6.555
X1.499 Y5.935
X1.889 Y5.328
X2.318 Y4.747
X2.778 Y4.19
X3.266 Y3.658
X3.778 Y3.149
X4.272 Y2.701
X4.523 Y2.509
X4.749 Y2.362
X4.828 Y2.32
X5.043 Y2.246
X5.27 Y2.244
X5.486 Y2.316
X5.667 Y2.453
X5.709 Y2.497
G3 X5.707 Y2.898 Z-5.774 I-0.224 J0.199
G1 X5.685 Y2.922 Z-5.761
X5.502 Y3.125
X1.229 Y7.84
G3 X0.91 Y7.923 I-0.222 J-0.201
X0.722 Y7.543 Z-5.961 I0.096 J-0.284
G1 X0.811 Y7.307
X0.814 Y7.297
X0.842 Y6.851
X0.841 Y6.834
X0.776 Y6.559
X0.749 Y6.411
X0.737 Y6.262
X0.739 Y6.092
X0.757 Y5.897
X0.794 Y5.683
X0.862 Y5.417
X0.966 Y5.116
X1.124 Y4.753
X1.35 Y4.332
X1.685 Y3.813
X2.124 Y3.239
X2.603 Y2.7
X3.065 Y2.242
X3.376 Y1.98
X3.646 Y1.787
X3.847 Y1.666
X4.047 Y1.568
X4.239 Y1.491
X4.4 Y1.441
X4.503 Y1.419
X4.699 Y1.403
X4.891 Y1.443
X5.065 Y1.535
X5.207 Y1.671
X5.305 Y1.842
X5.372 Y2.009
X5.422 Y2.132
X5.459 Y2.214
X5.49 Y2.265
X5.498 Y2.275
X5.667 Y2.453
G3 X5.642 Y2.876 Z-5.761 I-0.224 J0.199
G1 X5.64 Y2.878
X5.436 Y3.057
X1.366 Y6.615
X1.263 Y6.706
X1.207 Y6.744
X1.144 Y6.769
G3 X0.776 Y6.559 Z-5.961 I-0.079 J-0.29
G1 X0.735 Y6.385
X0.731 Y6.375
X0.567 Y6.067
X0.526 Y6.013
X0.44 Y5.89
X0.374 Y5.755
X0.325 Y5.613
X0.292 Y5.467
X0.272 Y5.318
X0.263 Y5.141
X0.269 Y4.947
X0.293 Y4.729
X0.345 Y4.46
X0.42 Y4.189
X0.545 Y3.848
X0.714 Y3.481
X0.965 Y3.033
X1.286 Y2.556
X1.67 Y2.073
X2.035 Y1.684
X2.381 Y1.369
X2.705 Y1.119
X3.004 Y0.924
X3.262 Y0.784
X3.51 Y0.675
X3.705 Y0.606
X3.909 Y0.553
X4.089 Y0.521
X4.254 Y0.505
X4.43 Y0.503
X4.498 Y0.507
X4.688 Y0.547
X4.86 Y0.637
X5. Y0.77
X5.099 Y0.938
X5.147 Y1.125
X5.15 Y1.148
X5.174 Y1.312
X5.21 Y1.476
X5.247 Y1.626
X5.251 Y1.64
X5.289 Y1.804
X5.305 Y1.842
G3 X5.224 Y2.165 Z-5.81 I-0.282 J0.102
G1 X5.137 Y2.244 Z-5.761
X4.935 Y2.429
X1.15 Y5.87
X0.959 Y6.044
X0.948 Y6.054
G3 X0.526 Y6.013 Z-5.961 I-0.191 J-0.231
G1 X0.466 Y5.936
X0.429 Y5.903
X0.11 Y5.625
X0.092 Y5.613
X-0.033 Y5.529
X-0.128 Y5.413
X-0.207 Y5.286
X-0.271 Y5.15
X-0.322 Y5.009
X-0.36 Y4.862
X-0.392 Y4.685
X-0.41 Y4.501
X-0.413 Y4.276
X-0.398 Y4.046
X-0.357 Y3.76
X-0.29 Y3.472
X-0.178 Y3.116
X-0.033 Y2.759
X0.176 Y2.344
X0.44 Y1.91
X0.746 Y1.487
X1.081 Y1.096
X1.431 Y0.746
X1.784 Y0.448
X2.135 Y0.196
X2.459 Y0.001
X2.769 Y-0.154
X3.07 Y-0.274
X3.351 Y-0.362
X3.594 Y-0.416
X3.821 Y-0.448
X4.008 Y-0.46
X4.207 Y-0.456
X4.373 Y-0.439
X4.533 Y-0.409
X4.593 Y-0.393
X4.768 Y-0.32
X4.916 Y-0.203
X5.028 Y-0.05
X5.095 Y0.127
X5.112 Y0.315
X5.109 Y0.492
X5.112 Y0.656
X5.118 Y0.82
X5.131 Y0.984
X5.147 Y1.125
G3 X5.05 Y1.372 Z-5.844 I-0.299 J0.024
G1 X4.904 Y1.504 Z-5.761
X4.701 Y1.688
X0.712 Y5.304
X0.509 Y5.488
X0.424 Y5.565 Z-5.809
G3 X0.092 Y5.613 Z-5.961 I-0.201 J-0.222
G1 X-0.164 Y5.478
X-0.302 Y5.411
X-0.328 Y5.397
X-0.418 Y5.354
X-0.55 Y5.283
X-0.67 Y5.193
X-0.775 Y5.085
X-0.866 Y4.966
X-0.944 Y4.838
X-1.009 Y4.703
X-1.066 Y4.558
X-1.117 Y4.387
X-1.157 Y4.201
X-1.186 Y3.983
X-1.198 Y3.747
X-1.19 Y3.485
X-1.157 Y3.186
X-1.096 Y2.873
X-0.994 Y2.506
X-0.856 Y2.129
X-0.671 Y1.728
X-0.432 Y1.302
X-0.143 Y0.874
X0.185 Y0.462
X0.543 Y0.08
X0.919 Y-0.261
X1.303 Y-0.558
X1.692 Y-0.811
X2.077 Y-1.019
X2.437 Y-1.178
X2.776 Y-1.296
X3.106 Y-1.382
X3.419 Y-1.438
X3.69 Y-1.463
X3.938 Y-1.467
X4.15 Y-1.453
X4.338 Y-1.425
X4.524 Y-1.382
X4.677 Y-1.334
X4.757 Y-1.301
X4.953 Y-1.18
X5.099 Y-1.004
X5.179 Y-0.789
X5.187 Y-0.56
X5.178 Y-0.492
X5.159 Y-0.328
X5.143 Y-0.164
X5.129 Y0.
X5.119 Y0.164
X5.112 Y0.315
X5.102 Y0.37 Z-5.937
X5.083 Y0.421 Z-5.914
X5.054 Y0.469 Z-5.89
X5.018 Y0.51 Z-5.867
X4.835 Y0.681 Z-5.761
X4.636 Y0.868
X0.195 Y5.027
X-0.004 Y5.214
X-0.094 Y5.298 Z-5.813
G3 X-0.418 Y5.354 Z-5.961 I-0.205 J-0.219
G1 X-0.492 Y5.319
X-0.656 Y5.245
X-0.82 Y5.186
X-0.984 Y5.129
X-1.064 Y5.104
X-1.204 Y5.051
X-1.332 Y4.974
X-1.449 Y4.879
X-1.553 Y4.771
X-1.645 Y4.653
X-1.727 Y4.526
X-1.801 Y4.389
X-1.873 Y4.222
X-1.934 Y4.044
X-1.988 Y3.836
X-2.027 Y3.607
X-2.05 Y3.352
X-2.053 Y3.058
X-2.032 Y2.758
X-1.979 Y2.413
X-1.889 Y2.031
X-1.766 Y1.648
X-1.59 Y1.224
X-1.361 Y0.775
X-1.08 Y0.32
X-0.754 Y-0.125
X-0.389 Y-0.546
X0.009 Y-0.938
X0.431 Y-1.291
X0.863 Y-1.596
X1.297 Y-1.854
X1.731 Y-2.067
X2.159 Y-2.236
X2.571 Y-2.361
X2.949 Y-2.443
X3.299 Y-2.49
X3.634 Y-2.509
X3.935 Y-2.501
X4.177 Y-2.475
X4.42 Y-2.429
X4.606 Y-2.378
X4.778 Y-2.315
X4.826 Y-2.293
X4.973 Y-2.203
X5.093 Y-2.08
X5.179 Y-1.931
X5.227 Y-1.766
X5.273 Y-1.476
X5.295 Y-1.312
X5.274 Y-1.148
X5.223 Y-0.82
X5.187 Y-0.56
X5.169 Y-0.497 Z-5.933
X5.138 Y-0.439 Z-5.905
X5.094 Y-0.39 Z-5.877
X4.893 Y-0.204 Z-5.761
X4.692 Y-0.018
X-0.457 Y4.737
X-0.658 Y4.923
X-0.779 Y5.035 Z-5.831
G3 X-1.064 Y5.104 Z-5.961 I-0.204 J-0.22
G1 X-1.148 Y5.077
X-1.312 Y5.029
X-1.476 Y4.983
X-1.64 Y4.941
X-1.77 Y4.909
X-1.914 Y4.868
X-2.048 Y4.802
X-2.173 Y4.718
X-2.287 Y4.62
X-2.39 Y4.512
X-2.484 Y4.394
X-2.574 Y4.26
X-2.661 Y4.104
X-2.743 Y3.924
X-2.814 Y3.729
X-2.878 Y3.495
X-2.925 Y3.251
X-2.956 Y2.966
X-2.964 Y2.649
X-2.947 Y2.322
X-2.897 Y1.948
X-2.807 Y1.532
X-2.681 Y1.116
X-2.502 Y0.662
X-2.267 Y0.181
X-1.977 Y-0.309
X-1.634 Y-0.794
X-1.244 Y-1.261
X-0.815 Y-1.698
X-0.357 Y-2.095
X0.123 Y-2.448
X0.618 Y-2.754
X1.118 Y-3.01
X1.613 Y-3.215
X2.094 Y-3.371
X2.56 Y-3.481
X2.993 Y-3.547
X3.389 Y-3.576
X3.757 Y-3.573
X4.078 Y-3.544
X4.343 Y-3.499
X4.558 Y-3.444
X4.586 Y-3.434
X4.755 Y-3.349
X4.895 Y-3.222
X4.996 Y-3.063
X5.05 Y-2.882
X5.227 Y-1.766
G3 X5.136 Y-1.513 Z-5.842 I-0.298 J0.037
G1 X4.998 Y-1.38 Z-5.761
X4.8 Y-1.191
X-1.173 Y4.516
X-1.371 Y4.705
X-1.504 Y4.832 Z-5.839
G3 X-1.77 Y4.909 Z-5.961 I-0.207 J-0.217
G1 X-1.968 Y4.863
X-2.132 Y4.828
X-2.296 Y4.794
X-2.498 Y4.755
X-2.536 Y4.748
X-2.682 Y4.715
X-2.824 Y4.668
X-2.959 Y4.602
X-3.084 Y4.52
X-3.201 Y4.425
X-3.308 Y4.32
X-3.406 Y4.207
X-3.496 Y4.086
X-3.576 Y3.96
X-3.649 Y3.828
X-3.713 Y3.693
X-3.77 Y3.554
X-3.819 Y3.413
X-3.862 Y3.269
X-3.897 Y3.123
X-3.926 Y2.976
X-3.949 Y2.828
X-3.966 Y2.678
X-3.977 Y2.529
X-3.983 Y2.379
X-3.984 Y2.229
X-3.979 Y2.079
X-3.971 Y1.929
X-3.957 Y1.78
X-3.938 Y1.631
X-3.916 Y1.483
X-3.889 Y1.335
X-3.858 Y1.188
X-3.823 Y1.043
X-3.785 Y0.897
X-3.743 Y0.753
X-3.698 Y0.61
X-3.649 Y0.469
X-3.597 Y0.328
X-3.542 Y0.188
X-3.484 Y0.05
X-3.423 Y-0.087
X-3.359 Y-0.223
X-3.292 Y-0.357
X-3.223 Y-0.49
X-3.151 Y-0.622
X-3.076 Y-0.752
X-2.999 Y-0.88
X-2.92 Y-1.008
X-2.838 Y-1.133
X-2.753 Y-1.257
X-2.667 Y-1.379
X-2.578 Y-1.5
X-2.487 Y-1.62
X-2.394 Y-1.737
X-2.298 Y-1.853
X-2.201 Y-1.967
X-2.102 Y-2.08
X-2.001 Y-2.19
X-1.897 Y-2.299
X-1.792 Y-2.406
X-1.685 Y-2.511
X-1.576 Y-2.614
X-1.465 Y-2.715
X-1.353 Y-2.814
X-1.238 Y-2.911
X-1.122 Y-3.007
X-1.005 Y-3.1
X-0.886 Y-3.191
X-0.765 Y-3.28
X-0.642 Y-3.366
X-0.519 Y-3.451
X-0.393 Y-3.533
X-0.266 Y-3.613
X-0.138 Y-3.691
X-0.008 Y-3.766
X0.123 Y-3.839
X0.255 Y-3.91
X0.389 Y-3.977
X0.524 Y-4.043
X0.66 Y-4.106
X0.798 Y-4.166
X0.936 Y-4.223
X1.076 Y-4.279
X1.216 Y-4.331
X1.358 Y-4.38
X1.501 Y-4.426
X1.644 Y-4.47
X1.789 Y-4.51
X1.934 Y-4.547
X2.08 Y-4.581
X2.227 Y-4.612
X2.375 Y-4.64
X2.522 Y-4.664
X2.671 Y-4.685
X2.82 Y-4.702
X2.969 Y-4.716
X3.119 Y-4.725
X3.269 Y-4.731
X3.419 Y-4.733
X3.569 Y-4.731
X3.719 Y-4.724
X3.868 Y-4.712
X3.904 Y-4.708
X4.122 Y-4.644
X4.308 Y-4.513
X4.442 Y-4.331
X4.919 Y-3.394
X4.977 Y-3.279
X4.991 Y-3.238
X5. Y-3.197
X5.05 Y-2.882
G3 X4.965 Y-2.634 Z-5.845 I-0.298 J0.037
G1 X4.824 Y-2.492 Z-5.761
X4.632 Y-2.298
X-1.953 Y4.332
X-2.145 Y4.526
X-2.281 Y4.663 Z-5.842
G3 X-2.536 Y4.748 Z-5.961 I-0.213 J-0.211
G1 X-2.787 Y4.705
X-2.91 Y4.684
X-2.951 Y4.672
X-3.115 Y4.591
X-3.861 Y4.211
X-3.992 Y4.136
X-4.112 Y4.047
X-4.222 Y3.945
X-4.323 Y3.834
X-4.423 Y3.703
X-4.522 Y3.551
X-4.616 Y3.375
X-4.706 Y3.172
X-4.786 Y2.94
X-4.854 Y2.678
X-4.906 Y2.382
X-4.936 Y2.051
X-4.941 Y1.682
X-4.913 Y1.274
X-4.846 Y0.828
X-4.733 Y0.342
X-4.567 Y-0.177
X-4.342 Y-0.726
X-4.051 Y-1.298
X-3.696 Y-1.877
X-3.276 Y-2.452
X-3.158 Y-2.589
X-3.038 Y-2.723
X-2.916 Y-2.856
X-2.831 Y-3.016
X-2.791 Y-3.192
X-2.797 Y-3.372
X-2.849 Y-3.545
X-3.037 Y-3.853
X-3.602 Y-4.303
X-4.221 Y-4.673
X-4.852 Y-5.025
X-5.474 Y-5.392
X-6.076 Y-5.79
X-6.653 Y-6.225
X-7.199 Y-6.696
X-7.714 Y-7.203
X-8.194 Y-7.742
X-8.638 Y-8.312
X-9.044 Y-8.908
X-9.415 Y-9.528
X-9.749 Y-10.168
X-10.049 Y-10.825
X-10.314 Y-11.496
X-10.545 Y-12.18
X-10.743 Y-12.875
X-10.909 Y-13.577
X-11.044 Y-14.286
X-11.148 Y-15.001
X-11.222 Y-15.719
X-11.267 Y-16.44
X-11.283 Y-17.162
X-11.27 Y-17.883
X-11.229 Y-18.604
X-11.161 Y-19.323
X-11.067 Y-20.039
X-10.948 Y-20.751
X-10.804 Y-21.459
X-10.636 Y-22.161
X-10.445 Y-22.857
X-10.23 Y-23.546
X-9.993 Y-24.228
X-9.734 Y-24.902
X-9.455 Y-25.568
X-9.155 Y-26.225
X-8.835 Y-26.872
X-8.506 Y-27.487
X-8.382 Y-27.679
X-8.271 Y-27.812
X-8.129 Y-27.914
X-7.967 Y-27.978
X-7.794 Y-28.
X-6.438
G0 Z5.
X-2.79 Y4.336
Z-5.361
G1 Z-5.661 F1000
X-2.798 Y4.337 Z-5.727
X-2.82 Y4.338 Z-5.791
X-2.855 Y4.341 Z-5.848
X-2.903 Y4.344 Z-5.895
X-2.96 Y4.347 Z-5.931
X-3.023 Y4.351 Z-5.953
X-3.09 Y4.356 Z-5.961
G3 X-3.861 Y4.211 I-0.103 J-1.579
G1 X-4.649 Y3.81
X-4.707 Y3.771
X-4.755 Y3.726
X-5.202 Y3.279
X-5.303 Y3.168
X-5.394 Y3.049
X-5.486 Y2.904
X-5.574 Y2.737
X-5.658 Y2.543
X-5.734 Y2.32
X-5.799 Y2.063
X-5.847 Y1.777
X-5.876 Y1.434
X-5.878 Y1.081
X-5.847 Y0.66
X-5.773 Y0.188
X-5.659 Y-0.292
X-5.48 Y-0.837
X-5.233 Y-1.429
X-5.068 Y-1.75
X-4.987 Y-1.911
X-4.95 Y-2.088
X-4.959 Y-2.449
X-5.064 Y-2.794
X-5.394 Y-3.436
X-5.874 Y-3.976
X-6.411 Y-4.458
X-6.964 Y-4.922
X-7.512 Y-5.392
X-8.044 Y-5.881
X-8.551 Y-6.395
X-9.029 Y-6.936
X-9.476 Y-7.502
X-9.892 Y-8.093
X-10.274 Y-8.705
X-10.625 Y-9.336
X-10.943 Y-9.984
X-11.23 Y-10.647
X-11.485 Y-11.323
X-11.709 Y-12.009
X-11.902 Y-12.704
X-12.066 Y-13.408
X-12.2 Y-14.117
X-12.305 Y-14.831
X-12.382 Y-15.549
X-12.43 Y-16.27
X-12.451 Y-16.991
X-12.445 Y-17.713
X-12.413 Y-18.435
X-12.356 Y-19.154
X-12.273 Y-19.872
X-12.167 Y-20.586
X-12.037 Y-21.296
X-11.883 Y-22.001
X-11.707 Y-22.702
X-11.509 Y-23.396
X-11.289 Y-24.083
X-11.048 Y-24.764
X-10.786 Y-25.437
X-10.505 Y-26.102
X-10.205 Y-26.758
X-9.888 Y-27.397
X-9.71 Y-27.694
X-9.701 Y-27.707
X-9.546 Y-27.864
X-9.349 Y-27.965
X-9.131 Y-28.
X-7.794
G0 Z5.
X-4.394 Y3.636
Z-5.361
G1 Z-5.661 F1000
X-4.402 Y3.634 Z-5.727
X-4.423 Y3.628 Z-5.791
X-4.458 Y3.619 Z-5.848
X-4.504 Y3.608 Z-5.895
X-4.559 Y3.594 Z-5.931
X-4.62 Y3.578 Z-5.953
X-4.685 Y3.562 Z-5.961
G3 X-5.202 Y3.279 I0.292 J-1.15
G1 X-6.022 Y2.46
X-6.067 Y2.413
X-6.09 Y2.384
X-6.108 Y2.354
X-6.472 Y1.64
X-6.534 Y1.503
X-6.601 Y1.308
X-6.654 Y1.098
X-6.698 Y0.844
X-6.723 Y0.565
X-6.726 Y0.232
X-6.701 Y-0.128
X-6.633 Y-0.573
X-6.468 Y-1.275
X-6.472 Y-1.636
X-6.613 Y-2.344
X-6.962 Y-2.976
X-7.414 Y-3.539
X-7.912 Y-4.062
X-8.425 Y-4.57
X-8.934 Y-5.082
X-9.428 Y-5.609
X-9.9 Y-6.155
X-10.346 Y-6.723
X-10.765 Y-7.311
X-11.156 Y-7.918
X-11.517 Y-8.543
X-11.849 Y-9.184
X-12.151 Y-9.84
X-12.425 Y-10.508
X-12.669 Y-11.187
X-12.885 Y-11.876
X-13.073 Y-12.574
X-13.233 Y-13.278
X-13.365 Y-13.987
X-13.469 Y-14.702
X-13.546 Y-15.42
X-13.597 Y-16.14
X-13.621 Y-16.862
X-13.62 Y-17.584
X-13.595 Y-18.305
X-13.545 Y-19.025
X-13.471 Y-19.744
X-13.375 Y-20.459
X-13.255 Y-21.171
X-13.114 Y-21.879
X-12.95 Y-22.582
X-12.766 Y-23.28
X-12.56 Y-23.973
X-12.335 Y-24.658
X-12.089 Y-25.337
X-11.824 Y-26.009
X-11.54 Y-26.673
X-11.24 Y-27.323
X-11.054 Y-27.652
X-11.027 Y-27.692
X-10.871 Y-27.857
X-10.671 Y-27.963
X-10.447 Y-28.
X-9.131
G0 Z5.
X-5.679 Y2.371
Z-5.361
G1 Z-5.661 F1000
X-5.686 Y2.367 Z-5.727
X-5.704 Y2.355 Z-5.791
X-5.735 Y2.336 Z-5.848
X-5.775 Y2.31 Z-5.895
X-5.823 Y2.28 Z-5.931
X-5.876 Y2.246 Z-5.953
X-5.933 Y2.211 Z-5.961
G3 X-6.472 Y1.64 I0.845 J-1.338
G1 X-6.807 Y0.984
X-6.895 Y0.82
X-7.051 Y0.529
X-7.064 Y0.492
X-7.107 Y0.328
X-7.154 Y0.164
X-7.215 Y-0.036
X-7.255 Y-0.164
X-7.462 Y-0.856
X-7.696 Y-1.539
X-8.044 Y-2.171
X-8.47 Y-2.754
X-8.939 Y-3.303
X-9.426 Y-3.837
X-9.914 Y-4.369
X-10.392 Y-4.909
X-10.855 Y-5.464
X-11.296 Y-6.035
X-11.712 Y-6.625
X-12.104 Y-7.232
X-12.468 Y-7.855
X-12.807 Y-8.493
X-13.118 Y-9.144
X-13.402 Y-9.808
X-13.659 Y-10.483
X-13.89 Y-11.167
X-14.094 Y-11.859
X-14.271 Y-12.559
X-14.423 Y-13.265
X-14.548 Y-13.976
X-14.647 Y-14.691
X-14.722 Y-15.409
X-14.771 Y-16.13
X-14.795 Y-16.851
Y-17.573
X-14.771 Y-18.295
X-14.724 Y-19.015
X-14.655 Y-19.734
X-14.564 Y-20.45
X-14.45 Y-21.163
X-14.316 Y-21.873
X-14.161 Y-22.578
X-13.985 Y-23.278
X-13.79 Y-23.973
X-13.574 Y-24.662
X-13.34 Y-25.345
X-13.087 Y-26.021
X-12.815 Y-26.69
X-12.543 Y-27.302
X-12.363 Y-27.632
X-12.33 Y-27.683
X-12.218 Y-27.815
X-12.077 Y-27.916
X-11.916 Y-27.979
X-11.744 Y-28.
X-10.447
G0 Z5.
X0.022 Y-8.609
Z-5.361
G1 Z-5.661 F1000
X0.029 Y-8.605 Z-5.727
X0.048 Y-8.594 Z-5.791
X0.078 Y-8.575 Z-5.848
X0.118 Y-8.55 Z-5.895
X0.167 Y-8.519 Z-5.931
X0.22 Y-8.486 Z-5.953
X0.277 Y-8.451 Z-5.961
G3 X0.82 Y-7.883 I-0.837 J1.343
G1 X0.826 Y-7.87
X0.925 Y-7.706
X1.037 Y-7.543
X1.071 Y-7.503
X1.162 Y-7.384
X1.315 Y-7.057
X1.56 Y-6.791
X2.158 Y-6.387
X2.814 Y-6.179
X2.917 Y-6.137
X3.013 Y-6.079
X3.097 Y-6.007
G3 X3.083 Y-5.583 Z-5.761 I-0.219 J0.205
X2.7 Y-5.561 I-0.205 J-0.219
G1 X0.67 Y-7.06
G3 X0.607 Y-7.48 I0.178 J-0.241
X0.647 Y-7.524 I0.241 J0.178
X1.071 Y-7.503 Z-5.961 I0.201 J0.222
G1 X1.148 Y-7.412
X1.178 Y-7.379
X1.312 Y-7.246
X1.476 Y-7.11
X1.549 Y-7.051
X1.804 Y-6.886
X1.968 Y-6.789
X2.084 Y-6.723
X2.46 Y-6.525
X2.623 Y-6.441
X2.703 Y-6.395
X2.787 Y-6.317
X4.021 Y-5.083
X4.099 Y-4.996
X4.142 Y-4.919
X4.442 Y-4.331
X4.463 Y-4.269 Z-5.933
X4.47 Y-4.205 Z-5.905
Y-4.204
G3 X4.297 Y-3.932 Z-5.761 I-0.3 J0.
G1 X4.27 Y-3.921
X4.039 Y-3.84
X-6.608 Y-0.085
X-6.866 Y0.006
X-6.876 Y0.009 Z-5.765
G3 X-7.255 Y-0.164 Z-5.961 I-0.1 J-0.283
G1 X-7.313 Y-0.328
X-7.379 Y-0.501
X-7.442 Y-0.656
X-7.523 Y-0.82
X-7.607 Y-0.984
X-7.719 Y-1.148
X-7.733 Y-1.167
X-8.093 Y-1.509
X-8.301 Y-1.64
X-8.362 Y-1.668
X-8.67 Y-1.823
X-9.001 Y-2.024
X-9.453 Y-2.351
X-10.002 Y-2.821
X-10.519 Y-3.324
X-11.014 Y-3.85
X-11.489 Y-4.394
X-11.943 Y-4.956
X-12.375 Y-5.534
X-12.785 Y-6.128
X-13.171 Y-6.738
X-13.533 Y-7.363
X-13.869 Y-8.002
X-14.18 Y-8.654
X-14.466 Y-9.317
X-14.726 Y-9.99
X-14.96 Y-10.673
X-15.17 Y-11.364
X-15.355 Y-12.062
X-15.516 Y-12.766
X-15.652 Y-13.475
X-15.763 Y-14.188
X-15.851 Y-14.905
X-15.914 Y-15.624
X-15.954 Y-16.345
X-15.971 Y-17.067
X-15.965 Y-17.789
X-15.937 Y-18.51
X-15.886 Y-19.23
X-15.815 Y-19.949
X-15.722 Y-20.665
X-15.609 Y-21.378
X-15.475 Y-22.087
X-15.321 Y-22.793
X-15.147 Y-23.493
X-14.954 Y-24.189
X-14.742 Y-24.879
X-14.512 Y-25.564
X-14.264 Y-26.242
X-13.997 Y-26.913
X-13.786 Y-27.381
X-13.634 Y-27.657
X-13.614 Y-27.686
X-13.502 Y-27.817
X-13.362 Y-27.917
X-13.201 Y-27.979
X-13.031 Y-28.
X-11.744
G0 Z5.
X-7.286 Y-1.601
Z-5.361
G1 Z-5.661 F1000
X-7.293 Z-5.727
X-7.315 Y-1.598 Z-5.791
X-7.351 Y-1.594 Z-5.848
X-7.398 Y-1.588 Z-5.895
X-7.454 Y-1.581 Z-5.931
X-7.517 Y-1.573 Z-5.953
X-7.584 Y-1.565 Z-5.961
G3 X-8.362 Y-1.668 I-0.19 J-1.571
G1 X-8.547 Y-1.749
X-9.018 Y-1.847
X-9.272 Y-1.829
X-9.422 Y-1.826
X-9.572 Y-1.836
X-9.72 Y-1.859
X-9.896 Y-1.901
X-10.108 Y-1.971
X-10.339 Y-2.068
X-10.622 Y-2.214
X-10.953 Y-2.421
X-11.367 Y-2.728
X-11.869 Y-3.167
X-12.372 Y-3.685
X-12.841 Y-4.234
X-13.282 Y-4.805
X-13.698 Y-5.396
X-14.09 Y-6.002
X-14.458 Y-6.623
X-14.802 Y-7.258
X-15.122 Y-7.905
X-15.418 Y-8.564
X-15.69 Y-9.232
X-15.939 Y-9.91
X-16.164 Y-10.596
X-16.366 Y-11.289
X-16.544 Y-11.989
X-16.699 Y-12.694
X-16.83 Y-13.404
X-16.939 Y-14.118
X-17.025 Y-14.835
X-17.088 Y-15.554
X-17.129 Y-16.275
X-17.147 Y-16.997
X-17.143 Y-17.719
X-17.118 Y-18.44
X-17.072 Y-19.161
X-17.006 Y-19.88
X-16.92 Y-20.597
X-16.813 Y-21.311
X-16.687 Y-22.022
X-16.542 Y-22.729
X-16.378 Y-23.432
X-16.195 Y-24.13
X-15.994 Y-24.824
X-15.775 Y-25.512
X-15.539 Y-26.194
X-15.283 Y-26.869
X-15.074 Y-27.35
X-14.922 Y-27.635
X-14.894 Y-27.678
X-14.782 Y-27.812
X-14.641 Y-27.914
X-14.478 Y-27.978
X-14.305 Y-28.
X-13.031
G0 Z5.
X-8.29 Y-2.274
Z-5.361
G1 Z-5.661 F1000
X-8.296 Y-2.269 Z-5.727
X-8.314 Y-2.257 Z-5.791
X-8.343 Y-2.236 Z-5.848
X-8.382 Y-2.209 Z-5.895
X-8.429 Y-2.177 Z-5.931
X-8.481 Y-2.141 Z-5.953
X-8.536 Y-2.103 Z-5.961
G3 X-9.272 Y-1.829 I-0.902 J-1.3
G1 X-9.479 Y-1.815
X-9.935 Y-1.647
X-9.949 Y-1.64
X-10.08 Y-1.567
X-10.227 Y-1.536
X-10.376 Y-1.521
X-10.526
X-10.697 Y-1.535
X-10.888 Y-1.566
X-11.093 Y-1.616
X-11.345 Y-1.701
X-11.611 Y-1.814
X-11.916 Y-1.975
X-12.268 Y-2.197
X-12.68 Y-2.506
X-13.139 Y-2.913
X-13.639 Y-3.433
X-14.102 Y-3.988
X-14.533 Y-4.567
X-14.937 Y-5.165
X-15.317 Y-5.779
X-15.673 Y-6.407
X-16.006 Y-7.048
X-16.316 Y-7.7
X-16.604 Y-8.362
X-16.869 Y-9.034
X-17.111 Y-9.714
X-17.332 Y-10.401
X-17.53 Y-11.096
X-17.705 Y-11.796
X-17.859 Y-12.501
X-17.991 Y-13.211
X-18.1 Y-13.925
X-18.187 Y-14.642
X-18.253 Y-15.361
X-18.297 Y-16.081
X-18.32 Y-16.803
X-18.323 Y-17.525
X-18.304 Y-18.247
X-18.266 Y-18.968
X-18.208 Y-19.687
X-18.131 Y-20.405
X-18.035 Y-21.121
X-17.919 Y-21.833
X-17.785 Y-22.543
X-17.633 Y-23.249
X-17.463 Y-23.95
X-17.275 Y-24.647
X-17.07 Y-25.34
X-16.847 Y-26.026
X-16.606 Y-26.707
X-16.381 Y-27.261
X-16.222 Y-27.576
X-16.169 Y-27.664
X-16.057 Y-27.804
X-15.914 Y-27.91
X-15.748 Y-27.977
X-15.571 Y-28.
X-14.305
G0 Z5.
X-9.386 Y-2.56
Z-5.361
G1 Z-5.661 F1000
X-9.389 Y-2.553 Z-5.727
X-9.397 Y-2.532 Z-5.791
X-9.409 Y-2.499 Z-5.848
X-9.427 Y-2.454 Z-5.895
X-9.447 Y-2.401 Z-5.931
X-9.47 Y-2.342 Z-5.953
X-9.494 Y-2.28 Z-5.961
G3 X-9.949 Y-1.64 I-1.477 J-0.568
G1 X-10.403 Y-1.282
X-10.525 Y-1.195
X-10.657 Y-1.124
X-10.797 Y-1.07
X-10.942 Y-1.032
X-11.09 Y-1.009
X-11.252 Y-0.997
X-11.425 Y-0.999
X-11.632 Y-1.018
X-11.843 Y-1.054
X-12.102 Y-1.12
X-12.364 Y-1.21
X-12.683 Y-1.349
X-13.007 Y-1.522
X-13.408 Y-1.781
X-13.811 Y-2.088
X-14.294 Y-2.522
X-14.79 Y-3.047
X-15.248 Y-3.605
X-15.675 Y-4.187
X-16.075 Y-4.788
X-16.45 Y-5.405
X-16.801 Y-6.036
X-17.13 Y-6.679
X-17.437 Y-7.332
X-17.722 Y-7.995
X-17.986 Y-8.667
X-18.229 Y-9.347
X-18.45 Y-10.035
X-18.649 Y-10.729
X-18.827 Y-11.428
X-18.984 Y-12.133
X-19.12 Y-12.842
X-19.235 Y-13.555
X-19.329 Y-14.271
X-19.402 Y-14.989
X-19.455 Y-15.709
X-19.488 Y-16.43
X-19.501 Y-17.152
X-19.494 Y-17.874
X-19.467 Y-18.596
X-19.422 Y-19.316
X-19.358 Y-20.036
X-19.275 Y-20.753
X-19.174 Y-21.468
X-19.055 Y-22.18
X-18.919 Y-22.889
X-18.765 Y-23.594
X-18.593 Y-24.295
X-18.405 Y-24.992
X-18.2 Y-25.685
X-17.977 Y-26.371
X-17.731 Y-27.05
X-17.56 Y-27.431
X-17.427 Y-27.675
X-17.421 Y-27.684
X-17.309 Y-27.816
X-17.168 Y-27.916
X-17.007 Y-27.979
X-16.836 Y-28.
X-15.571
G0 Z5.
X-9.84 Y-2.202
Z-5.361
G1 Z-5.661 F1000
X-9.843 Y-2.195 Z-5.727
X-9.851 Y-2.174 Z-5.791
X-9.864 Y-2.141 Z-5.848
X-9.881 Y-2.097 Z-5.895
X-9.901 Y-2.044 Z-5.931
X-9.924 Y-1.985 Z-5.953
X-9.948 Y-1.922 Z-5.961
G3 X-10.403 Y-1.282 I-1.477 J-0.568
G1 X-10.422 Y-1.267
X-10.432 Y-1.257
X-10.494 Y-1.182
X-10.658 Y-0.907
X-10.741 Y-0.782
X-10.843 Y-0.673
X-10.961 Y-0.58
X-11.09 Y-0.503
X-11.227 Y-0.441
X-11.369 Y-0.393
X-11.524 Y-0.354
X-11.688 Y-0.327
X-11.884 Y-0.311
X-12.087 Y-0.31
X-12.325 Y-0.329
X-12.573 Y-0.368
X-12.864 Y-0.439
X-13.172 Y-0.541
X-13.506 Y-0.682
X-13.898 Y-0.885
X-14.286 Y-1.129
X-14.748 Y-1.473
X-15.254 Y-1.918
X-15.756 Y-2.436
X-16.221 Y-2.989
X-16.654 Y-3.567
X-17.058 Y-4.165
X-17.437 Y-4.779
X-17.793 Y-5.408
X-18.126 Y-6.048
X-18.438 Y-6.699
X-18.729 Y-7.36
X-19. Y-8.029
X-19.25 Y-8.706
X-19.479 Y-9.391
X-19.688 Y-10.082
X-19.877 Y-10.779
X-20.046 Y-11.481
X-20.194 Y-12.187
X-20.323 Y-12.898
X-20.432 Y-13.612
X-20.52 Y-14.328
X-20.589 Y-15.047
X-20.639 Y-15.767
X-20.669 Y-16.489
X-20.68 Y-17.21
X-20.673 Y-17.932
X-20.646 Y-18.654
X-20.602 Y-19.375
X-20.539 Y-20.094
X-20.458 Y-20.811
X-20.36 Y-21.526
X-20.244 Y-22.239
X-20.111 Y-22.949
X-19.961 Y-23.655
X-19.795 Y-24.358
X-19.612 Y-25.056
X-19.413 Y-25.75
X-19.196 Y-26.439
X-18.953 Y-27.119
X-18.798 Y-27.462
X-18.701 Y-27.638
X-18.59 Y-27.787
X-18.444 Y-27.903
X-18.273 Y-27.975
X-18.088 Y-28.
X-16.836
G0 Z5.
X-10.461 Y-1.968
Z-5.361
G1 Z-5.661 F1000
Y-1.96 Z-5.727
Y-1.938 Z-5.791
Y-1.902 Z-5.848
Y-1.855 Z-5.895
Y-1.798 Z-5.931
Y-1.734 Z-5.953
X-10.462 Y-1.668 Z-5.961
G3 X-10.658 Y-0.907 I-1.583 J-0.003
G1 X-10.806 Y-0.656
X-11.007 Y-0.262
X-11.082 Y-0.132
X-11.179 Y-0.017
X-11.29 Y0.084
X-11.413 Y0.17
X-11.543 Y0.244
X-11.68 Y0.306
X-11.833 Y0.36
X-12.004 Y0.406
X-12.2 Y0.441
X-12.409 Y0.462
X-12.654 Y0.467
X-12.905 Y0.452
X-13.203 Y0.41
X-13.513 Y0.34
X-13.852 Y0.235
X-14.246 Y0.076
X-14.635 Y-0.117
X-15.09 Y-0.391
X-15.592 Y-0.752
X-16.111 Y-1.192
X-16.622 Y-1.702
X-17.097 Y-2.246
X-17.538 Y-2.817
X-17.952 Y-3.409
X-18.34 Y-4.018
X-18.705 Y-4.641
X-19.048 Y-5.276
X-19.37 Y-5.923
X-19.671 Y-6.579
X-19.952 Y-7.244
X-20.214 Y-7.917
X-20.456 Y-8.597
X-20.678 Y-9.284
X-20.881 Y-9.977
X-21.065 Y-10.675
X-21.229 Y-11.378
X-21.375 Y-12.085
X-21.501 Y-12.796
X-21.608 Y-13.51
X-21.696 Y-14.227
X-21.765 Y-14.945
X-21.815 Y-15.666
X-21.847 Y-16.387
X-21.86 Y-17.109
X-21.855 Y-17.831
X-21.832 Y-18.552
X-21.792 Y-19.273
X-21.734 Y-19.993
X-21.659 Y-20.711
X-21.567 Y-21.427
X-21.458 Y-22.141
X-21.332 Y-22.852
X-21.191 Y-23.56
X-21.033 Y-24.264
X-20.859 Y-24.965
X-20.669 Y-25.662
X-20.461 Y-26.353
X-20.229 Y-27.037
X-20.067 Y-27.413
X-19.94 Y-27.654
X-19.926 Y-27.675
X-19.815 Y-27.81
X-19.673 Y-27.914
X-19.51 Y-27.978
X-19.336 Y-28.
X-18.088
G0 Z5.
X-10.882 Y-1.333
Z-5.361
G1 Z-5.661 F1000
Y-1.325 Z-5.727
X-10.88 Y-1.303 Z-5.791
X-10.878 Y-1.268 Z-5.848
X-10.875 Y-1.22 Z-5.895
X-10.871 Y-1.163 Z-5.931
X-10.867 Y-1.1 Z-5.953
X-10.862 Y-1.034 Z-5.961
G3 X-11.007 Y-0.262 I-1.579 J0.103
G1 X-11.057 Y-0.164
X-11.314 Y0.366
X-11.32 Y0.382
X-11.371 Y0.523
X-11.453 Y0.648
X-11.553 Y0.761
X-11.665 Y0.861
X-11.786 Y0.949
X-11.915 Y1.025
X-12.056 Y1.094
X-12.223 Y1.159
X-12.406 Y1.214
X-12.613 Y1.259
X-12.848 Y1.29
X-13.096 Y1.303
X-13.392 Y1.295
X-13.694 Y1.262
X-14.033 Y1.197
X-14.421 Y1.09
X-14.808 Y0.949
X-15.259 Y0.742
X-15.761 Y0.46
X-16.252 Y0.131
X-16.795 Y-0.3
X-17.323 Y-0.793
X-17.814 Y-1.322
X-18.274 Y-1.878
X-18.705 Y-2.458
X-19.111 Y-3.055
X-19.492 Y-3.668
X-19.851 Y-4.295
X-20.189 Y-4.933
X-20.507 Y-5.581
X-20.805 Y-6.238
X-21.084 Y-6.904
X-21.344 Y-7.578
X-21.585 Y-8.258
X-21.808 Y-8.945
X-22.011 Y-9.638
X-22.196 Y-10.336
X-22.362 Y-11.039
X-22.51 Y-11.745
X-22.639 Y-12.456
X-22.751 Y-13.169
X-22.844 Y-13.885
X-22.918 Y-14.603
X-22.975 Y-15.323
X-23.014 Y-16.044
X-23.035 Y-16.765
X-23.039 Y-17.487
X-23.026 Y-18.209
X-22.995 Y-18.931
X-22.948 Y-19.651
X-22.883 Y-20.37
X-22.803 Y-21.088
X-22.706 Y-21.803
X-22.593 Y-22.516
X-22.464 Y-23.227
X-22.319 Y-23.934
X-22.159 Y-24.638
X-21.983 Y-25.338
X-21.791 Y-26.034
X-21.579 Y-26.724
X-21.391 Y-27.226
X-21.246 Y-27.535
X-21.182 Y-27.647
X-21.071 Y-27.793
X-20.926 Y-27.905
X-20.756 Y-27.976
X-20.575 Y-28.
X-19.336
G0 Z5.
X-11.446 Y-0.689
Z-5.361
G1 Z-5.661 F1000
X-11.444 Y-0.682 Z-5.727
X-11.437 Y-0.661 Z-5.791
X-11.427 Y-0.627 Z-5.848
X-11.413 Y-0.581 Z-5.895
X-11.396 Y-0.527 Z-5.931
X-11.377 Y-0.466 Z-5.953
X-11.358 Y-0.403 Z-5.961
G3 X-11.32 Y0.382 I-1.512 J0.467
G1 X-11.425 Y0.82
X-11.453 Y0.984
X-11.484 Y1.131
X-11.544 Y1.268
X-11.623 Y1.396
X-11.717 Y1.512
X-11.824 Y1.618
X-11.939 Y1.714
X-12.067 Y1.803
X-12.216 Y1.89
X-12.383 Y1.97
X-12.579 Y2.045
X-12.786 Y2.106
X-13.031 Y2.157
X-13.295 Y2.19
X-13.589 Y2.203
X-13.924 Y2.191
X-14.268 Y2.151
X-14.656 Y2.074
X-15.103 Y1.947
X-15.553 Y1.779
X-16.035 Y1.553
X-16.573 Y1.247
X-17.143 Y0.859
X-17.705 Y0.406
X-18.232 Y-0.088
X-18.726 Y-0.614
X-19.189 Y-1.168
X-19.625 Y-1.744
X-20.035 Y-2.338
X-20.423 Y-2.947
X-20.788 Y-3.57
X-21.133 Y-4.204
X-21.459 Y-4.848
X-21.765 Y-5.502
X-22.052 Y-6.164
X-22.321 Y-6.834
X-22.572 Y-7.511
X-22.805 Y-8.195
X-23.02 Y-8.884
X-23.217 Y-9.579
X-23.396 Y-10.278
X-23.557 Y-10.982
X-23.7 Y-11.69
X-23.826 Y-12.401
X-23.935 Y-13.114
X-24.026 Y-13.831
X-24.099 Y-14.549
X-24.156 Y-15.269
X-24.195 Y-15.99
X-24.217 Y-16.711
X-24.221 Y-17.433
X-24.21 Y-18.155
X-24.181 Y-18.877
X-24.137 Y-19.597
X-24.076 Y-20.317
X-24. Y-21.034
X-23.907 Y-21.751
X-23.799 Y-22.464
X-23.676 Y-23.176
X-23.538 Y-23.884
X-23.384 Y-24.59
X-23.215 Y-25.292
X-23.03 Y-25.99
X-22.823 Y-26.681
X-22.643 Y-27.182
X-22.498 Y-27.502
X-22.421 Y-27.64
X-22.31 Y-27.789
X-22.164 Y-27.903
X-21.993 Y-27.975
X-21.809 Y-28.
X-20.575
G0 Z5.
X-11.665 Y-0.074
Z-5.361
G1 Z-5.661 F1000
X-11.662 Y-0.067 Z-5.727
X-11.654 Y-0.046 Z-5.791
X-11.641 Y-0.013 Z-5.848
X-11.623 Y0.031 Z-5.895
X-11.602 Y0.084 Z-5.931
X-11.579 Y0.143 Z-5.953
X-11.554 Y0.205 Z-5.961
G3 X-11.453 Y0.984 I-1.47 J0.586
G1 X-11.572 Y1.73
X-11.602 Y1.877
X-11.654 Y2.018
X-11.724 Y2.15
X-11.809 Y2.274
X-11.906 Y2.388
X-12.014 Y2.493
X-12.141 Y2.598
X-12.281 Y2.695
X-12.45 Y2.794
X-12.636 Y2.884
X-12.851 Y2.967
X-13.099 Y3.04
X-13.358 Y3.095
X-13.663 Y3.134
X-13.998 Y3.149
X-14.357 Y3.137
X-14.766 Y3.091
X-15.214 Y3.002
X-15.665 Y2.876
X-16.175 Y2.686
X-16.74 Y2.424
X-17.335 Y2.087
X-17.933 Y1.681
X-18.496 Y1.23
X-19.027 Y0.74
X-19.527 Y0.22
X-19.999 Y-0.327
X-20.444 Y-0.896
X-20.865 Y-1.482
X-21.263 Y-2.085
X-21.639 Y-2.701
X-21.995 Y-3.329
X-22.332 Y-3.967
X-22.65 Y-4.615
X-22.95 Y-5.272
X-23.232 Y-5.937
X-23.496 Y-6.609
X-23.743 Y-7.287
X-23.972 Y-7.972
X-24.184 Y-8.662
X-24.379 Y-9.357
X-24.557 Y-10.057
X-24.718 Y-10.761
X-24.861 Y-11.469
X-24.988 Y-12.179
X-25.097 Y-12.893
X-25.19 Y-13.609
X-25.265 Y-14.327
X-25.325 Y-15.047
X-25.367 Y-15.767
X-25.393 Y-16.489
X-25.403 Y-17.211
X-25.397 Y-17.933
X-25.374 Y-18.654
X-25.336 Y-19.375
X-25.283 Y-20.095
X-25.214 Y-20.814
X-25.129 Y-21.531
X-25.03 Y-22.246
X-24.916 Y-22.959
X-24.786 Y-23.67
X-24.643 Y-24.377
X-24.484 Y-25.081
X-24.309 Y-25.782
X-24.115 Y-26.477
X-23.914 Y-27.079
X-23.764 Y-27.431
X-23.642 Y-27.664
X-23.636 Y-27.674
X-23.524 Y-27.809
X-23.382 Y-27.913
X-23.219 Y-27.978
X-23.044 Y-28.
X-21.809
G0 Z5.
X-11.783 Y0.672
Z-5.361
G1 Z-5.661 F1000
X-11.781 Y0.679 Z-5.727
X-11.772 Y0.7 Z-5.791
X-11.759 Y0.733 Z-5.848
X-11.742 Y0.777 Z-5.895
X-11.72 Y0.83 Z-5.931
X-11.697 Y0.889 Z-5.953
X-11.672 Y0.951 Z-5.961
G3 X-11.572 Y1.73 I-1.47 J0.586
G1 X-11.66 Y2.296
X-11.685 Y2.46
Y2.509
X-11.692 Y2.659
X-11.734 Y2.803
X-11.795 Y2.94
X-11.872 Y3.069
X-11.961 Y3.19
X-12.061 Y3.302
X-12.182 Y3.418
X-12.316 Y3.527
X-12.48 Y3.64
X-12.664 Y3.745
X-12.875 Y3.845
X-13.122 Y3.939
X-13.383 Y4.014
X-13.692 Y4.077
X-14.035 Y4.118
X-14.4 Y4.133
X-14.813 Y4.116
X-15.278 Y4.06
X-15.749 Y3.964
X-16.277 Y3.811
X-16.863 Y3.589
X-17.487 Y3.294
X-18.113 Y2.934
X-18.708 Y2.525
X-19.272 Y2.075
X-19.807 Y1.589
X-20.312 Y1.074
X-20.791 Y0.534
X-21.245 Y-0.028
X-21.676 Y-0.607
X-22.084 Y-1.203
X-22.472 Y-1.812
X-22.839 Y-2.433
X-23.188 Y-3.066
X-23.518 Y-3.708
X-23.83 Y-4.359
X-24.124 Y-5.018
X-24.401 Y-5.685
X-24.662 Y-6.358
X-24.905 Y-7.038
X-25.132 Y-7.723
X-25.342 Y-8.414
X-25.536 Y-9.11
X-25.713 Y-9.81
X-25.874 Y-10.514
X-26.017 Y-11.221
X-26.145 Y-11.932
X-26.256 Y-12.645
X-26.35 Y-13.361
X-26.429 Y-14.079
X-26.491 Y-14.798
X-26.538 Y-15.518
X-26.569 Y-16.24
X-26.583 Y-16.962
Y-17.684
X-26.567 Y-18.405
X-26.535 Y-19.127
X-26.489 Y-19.847
X-26.427 Y-20.567
X-26.351 Y-21.285
X-26.26 Y-22.001
X-26.155 Y-22.715
X-26.035 Y-23.427
X-25.901 Y-24.136
X-25.752 Y-24.843
X-25.588 Y-25.546
X-25.406 Y-26.245
X-25.195 Y-26.935
X-25.045 Y-27.32
X-24.916 Y-27.587
X-24.876 Y-27.655
X-24.764 Y-27.798
X-24.62 Y-27.908
X-24.452 Y-27.977
X-24.272 Y-28.
X-23.044
G0 Z5.
X-12.062 Y1.498
Z-5.361
G1 Z-5.661 F1000
X-12.058 Y1.505 Z-5.727
X-12.047 Y1.524 Z-5.791
X-12.028 Y1.555 Z-5.848
X-12.004 Y1.595 Z-5.895
X-11.975 Y1.644 Z-5.931
X-11.942 Y1.699 Z-5.953
X-11.908 Y1.756 Z-5.961
G3 X-11.685 Y2.509 I-1.359 J0.811
G1 Y2.623
X-11.679 Y2.951
X-11.656 Y3.115
X-11.64 Y3.265
X-11.652 Y3.414
X-11.685 Y3.56
X-11.737 Y3.701
X-11.804 Y3.835
X-11.883 Y3.963
X-11.977 Y4.087
X-12.089 Y4.213
X-12.22 Y4.339
X-12.38 Y4.47
X-12.555 Y4.591
X-12.77 Y4.715
X-13.004 Y4.826
X-13.271 Y4.928
X-13.585 Y5.019
X-13.914 Y5.087
X-14.293 Y5.133
X-14.721 Y5.151
X-15.181 Y5.133
X-15.664 Y5.076
X-16.215 Y4.965
X-16.825 Y4.79
X-17.472 Y4.546
X-18.12 Y4.241
X-18.747 Y3.882
X-19.345 Y3.478
X-19.915 Y3.035
X-20.458 Y2.559
X-20.975 Y2.055
X-21.467 Y1.526
X-21.934 Y0.976
X-22.379 Y0.407
X-22.802 Y-0.178
X-23.205 Y-0.777
X-23.587 Y-1.389
X-23.951 Y-2.013
X-24.297 Y-2.647
X-24.625 Y-3.29
X-24.935 Y-3.942
X-25.229 Y-4.601
X-25.506 Y-5.268
X-25.767 Y-5.941
X-26.011 Y-6.621
X-26.239 Y-7.306
X-26.451 Y-7.996
X-26.647 Y-8.691
X-26.827 Y-9.39
X-26.991 Y-10.093
X-27.139 Y-10.8
X-27.271 Y-11.51
X-27.387 Y-12.222
X-27.488 Y-12.937
X-27.573 Y-13.654
X-27.643 Y-14.373
X-27.697 Y-15.093
X-27.735 Y-15.814
X-27.759 Y-16.535
X-27.767 Y-17.257
X-27.761 Y-17.979
X-27.739 Y-18.701
X-27.703 Y-19.422
X-27.653 Y-20.142
X-27.587 Y-20.861
X-27.508 Y-21.579
X-27.414 Y-22.295
X-27.307 Y-23.009
X-27.185 Y-23.72
X-27.05 Y-24.429
X-26.9 Y-25.136
X-26.734 Y-25.838
X-26.546 Y-26.536
X-26.361 Y-27.097
X-26.218 Y-27.434
X-26.1 Y-27.662
X-26.094 Y-27.672
X-25.982 Y-27.808
X-25.84 Y-27.912
X-25.676 Y-27.978
X-25.501 Y-28.
X-24.272
G0 Z5.
X-12.184 Y2.175
Z-5.361
G1 Z-5.661 F1000
X-12.18 Y2.181 Z-5.727
X-12.165 Y2.198 Z-5.791
X-12.143 Y2.225 Z-5.848
X-12.112 Y2.262 Z-5.895
X-12.076 Y2.306 Z-5.931
X-12.035 Y2.354 Z-5.953
X-11.993 Y2.406 Z-5.961
G3 X-11.656 Y3.115 I-1.217 J1.011
G1 X-11.538 Y3.861
X-11.522 Y4.011
X-11.525 Y4.161
X-11.55 Y4.309
X-11.591 Y4.453
X-11.648 Y4.591
X-11.717 Y4.725
X-11.804 Y4.863
X-11.906 Y4.998
X-12.032 Y5.141
X-12.181 Y5.285
X-12.355 Y5.427
X-12.564 Y5.572
X-12.79 Y5.703
X-13.058 Y5.831
X-13.371 Y5.95
X-13.7 Y6.047
X-14.083 Y6.126
X-14.517 Y6.18
X-14.978 Y6.2
X-15.477 Y6.182
X-16.047 Y6.115
X-16.678 Y5.988
X-17.346 Y5.798
X-18.012 Y5.548
X-18.666 Y5.242
X-19.295 Y4.888
X-19.899 Y4.492
X-20.478 Y4.06
X-21.032 Y3.597
X-21.561 Y3.106
X-22.067 Y2.591
X-22.55 Y2.054
X-23.011 Y1.499
X-23.45 Y0.926
X-23.87 Y0.338
X-24.27 Y-0.263
X-24.651 Y-0.876
X-25.014 Y-1.5
X-25.359 Y-2.134
X-25.687 Y-2.777
X-25.999 Y-3.429
X-26.294 Y-4.088
X-26.573 Y-4.754
X-26.835 Y-5.426
X-27.082 Y-6.105
X-27.314 Y-6.789
X-27.529 Y-7.478
X-27.73 Y-8.171
X-27.915 Y-8.869
X-27.98 Y-9.141
X-27.991 Y-9.195
X-27.998 Y-9.25
X-28. Y-9.305
Y-24.267
X-27.964 Y-24.988
X-27.928 Y-25.347
X-27.83 Y-26.027
X-27.686 Y-26.663
X-27.541 Y-27.128
X-27.418 Y-27.434
X-27.308 Y-27.652
X-27.302 Y-27.662
X-27.191 Y-27.802
X-27.047 Y-27.91
X-26.881 Y-27.977
X-26.703 Y-28.
G3 X-26.414 Y-27.69 Z-5.761 I-0.01 J0.3
G1 X-26.418 Y-27.653
X-26.426 Y-27.617
X-26.481 Y-27.425
X-27.412 Y-24.195
G3 X-27.69 Y-23.978 I-0.288 J-0.083
X-28. Y-24.267 Z-5.961 I-0.01 J-0.3
G1 Y-27.383
X-27.993 Y-27.532
X-27.928 Y-27.717
X-27.804 Y-27.867
X-27.635 Y-27.966
X-27.443 Y-28.
G3 X-27.153 Y-27.69 Z-5.761 I-0.01 J0.3
G1 X-27.162 Y-27.626
X-27.185 Y-27.566
X-27.219 Y-27.512
X-27.27 Y-27.449
X-27.456 Y-27.217
X-27.466 Y-27.205
X-27.512 Y-27.16
X-27.566 Y-27.125
X-27.626 Y-27.102
X-27.69 Y-27.093
G3 X-28. Y-27.383 Z-5.961 I-0.01 J-0.3
G1 Y-27.547
X-27.998 Y-27.711
X-27.991 Y-27.752
X-27.978 Y-27.793
X-27.958 Y-27.834
X-27.929 Y-27.874
X-27.874 Y-27.929
X-27.834 Y-27.958
X-27.793 Y-27.978
X-27.752 Y-27.991
X-27.711 Y-27.998
X-27.547 Y-28.
X-25.501
G0 Z5.
X-12.066 Y2.921
Z-5.361
G1 Z-5.661 F1000
X-12.062 Y2.927 Z-5.727
X-12.047 Y2.944 Z-5.791
X-12.025 Y2.971 Z-5.848
X-11.994 Y3.008 Z-5.895
X-11.958 Y3.052 Z-5.931
X-11.917 Y3.1 Z-5.953
X-11.875 Y3.152 Z-5.961
G3 X-11.538 Y3.861 I-1.217 J1.012
G1 X-11.449 Y4.427
X-11.421 Y4.591
X-11.407 Y4.641
X-11.376 Y4.787
X-11.369 Y4.937
X-11.384 Y5.086
X-11.416 Y5.233
X-11.463 Y5.376
X-11.522 Y5.513
X-11.599 Y5.658
X-11.693 Y5.803
X-11.81 Y5.957
X-11.953 Y6.115
X-12.118 Y6.272
X-12.321 Y6.435
X-12.543 Y6.586
X-12.806 Y6.735
X-13.119 Y6.881
X-13.449 Y7.004
X-13.832 Y7.113
X-14.271 Y7.199
X-14.751 Y7.255
X-15.26 Y7.273
X-15.846 Y7.246
X-16.496 Y7.164
X-17.187 Y7.019
X-17.88 Y6.815
X-18.554 Y6.558
X-19.208 Y6.251
X-19.839 Y5.901
X-20.448 Y5.513
X-21.034 Y5.091
X-21.597 Y4.639
X-22.137 Y4.16
X-22.655 Y3.657
X-23.152 Y3.133
X-23.627 Y2.589
X-24.082 Y2.028
X-24.517 Y1.452
X-24.933 Y0.862
X-25.33 Y0.259
X-25.71 Y-0.355
X-26.072 Y-0.979
X-26.418 Y-1.613
X-26.746 Y-2.256
X-27.059 Y-2.907
X-27.355 Y-3.566
X-27.635 Y-4.231
X-27.9 Y-4.902
X-27.957 Y-5.055
X-27.981 Y-5.134
X-27.995 Y-5.215
X-28. Y-5.297
Y-9.305
G0 Z5.
X-12.032 Y3.761
Z-5.361
G1 Z-5.661 F1000
X-12.026 Y3.766 Z-5.727
X-12.01 Y3.782 Z-5.791
X-11.985 Y3.807 Z-5.848
X-11.951 Y3.84 Z-5.895
X-11.91 Y3.88 Z-5.931
X-11.865 Y3.924 Z-5.953
X-11.817 Y3.97 Z-5.961
G3 X-11.407 Y4.641 I-1.104 J1.134
G1 X-11.292 Y5.071
X-11.286 Y5.083
X-11.205 Y5.247
X-11.145 Y5.384
X-11.112 Y5.531
X-11.101 Y5.68
X-11.109 Y5.83
X-11.134 Y5.978
X-11.172 Y6.123
X-11.223 Y6.266
X-11.295 Y6.423
X-11.381 Y6.579
X-11.495 Y6.751
X-11.628 Y6.92
X-11.792 Y7.098
X-11.99 Y7.281
X-12.209 Y7.452
X-12.474 Y7.627
X-12.784 Y7.798
X-13.117 Y7.948
X-13.511 Y8.088
X-13.959 Y8.209
X-14.445 Y8.298
X-14.971 Y8.352
X-15.576 Y8.365
X-16.247 Y8.325
X-16.962 Y8.225
X-17.667 Y8.068
X-18.358 Y7.859
X-19.032 Y7.6
X-19.687 Y7.297
X-20.322 Y6.953
X-20.937 Y6.574
X-21.531 Y6.164
X-22.103 Y5.724
X-22.655 Y5.258
X-23.186 Y4.769
X-23.696 Y4.258
X-24.187 Y3.728
X-24.657 Y3.181
X-25.109 Y2.617
X-25.541 Y2.039
X-25.956 Y1.448
X-26.353 Y0.845
X-26.733 Y0.231
X-27.096 Y-0.393
X-27.442 Y-1.027
X-27.772 Y-1.669
X-27.93 Y-1.995
X-27.969 Y-2.092
X-27.992 Y-2.195
X-28. Y-2.3
Y-5.297
G0 Z5.
X-11.991 Y4.509
Z-5.361
G1 Z-5.661 F1000
X-11.985 Y4.513 Z-5.727
X-11.966 Y4.525 Z-5.791
X-11.936 Y4.544 Z-5.848
X-11.896 Y4.57 Z-5.895
X-11.848 Y4.601 Z-5.931
X-11.795 Y4.635 Z-5.953
X-11.739 Y4.671 Z-5.961
G3 X-11.205 Y5.247 I-0.857 J1.33
G1 X-11.041 Y5.575
X-10.875 Y5.903
X-10.813 Y6.04
X-10.77 Y6.183
X-10.747 Y6.332
X-10.743 Y6.481
X-10.754 Y6.631
X-10.779 Y6.779
X-10.82 Y6.937
X-10.875 Y7.095
X-10.952 Y7.27
X-11.048 Y7.448
X-11.169 Y7.635
X-11.323 Y7.835
X-11.497 Y8.028
X-11.713 Y8.23
X-11.967 Y8.434
X-12.248 Y8.623
X-12.587 Y8.814
X-12.981 Y8.997
X-13.399 Y9.151
X-13.872 Y9.283
X-14.418 Y9.389
X-15.036 Y9.459
X-15.705 Y9.48
X-16.396 Y9.446
X-17.112 Y9.354
X-17.819 Y9.207
X-18.514 Y9.012
X-19.195 Y8.771
X-19.859 Y8.489
X-20.507 Y8.169
X-21.135 Y7.815
X-21.745 Y7.428
X-22.336 Y7.013
X-22.907 Y6.571
X-23.459 Y6.105
X-23.99 Y5.617
X-24.502 Y5.108
X-24.995 Y4.581
X-25.47 Y4.036
X-25.926 Y3.477
X-26.364 Y2.903
X-26.785 Y2.316
X-27.189 Y1.718
X-27.577 Y1.109
X-27.9 Y0.568
X-27.955 Y0.455
X-27.989 Y0.333
X-28. Y0.208
Y-2.3
G0 Z5.
X-11.668 Y5.172
Z-5.361
G1 Z-5.661 F1000
X-11.661 Y5.176 Z-5.727
X-11.642 Y5.188 Z-5.791
X-11.612 Y5.207 Z-5.848
X-11.572 Y5.232 Z-5.895
X-11.524 Y5.262 Z-5.931
X-11.47 Y5.296 Z-5.953
X-11.414 Y5.332 Z-5.961
G3 X-10.875 Y5.903 I-0.845 J1.338
G1 X-10.494 Y6.65
X-10.472 Y6.69
X-10.407 Y6.825
X-10.368 Y6.97
X-10.347 Y7.118
X-10.342 Y7.268
X-10.352 Y7.418
X-10.376 Y7.575
X-10.414 Y7.734
X-10.472 Y7.915
X-10.548 Y8.097
X-10.65 Y8.296
X-10.779 Y8.504
X-10.931 Y8.711
X-11.126 Y8.936
X-11.35 Y9.156
X-11.615 Y9.378
X-11.933 Y9.602
X-12.298 Y9.818
X-12.69 Y10.01
X-13.156 Y10.193
X-13.697 Y10.356
X-14.303 Y10.488
X-14.931 Y10.572
X-15.623 Y10.608
X-16.344 Y10.588
X-17.062 Y10.514
X-17.774 Y10.39
X-18.475 Y10.22
X-19.165 Y10.007
X-19.842 Y9.754
X-20.503 Y9.464
X-21.148 Y9.141
X-21.777 Y8.785
X-22.387 Y8.399
X-22.979 Y7.986
X-23.553 Y7.548
X-24.109 Y7.087
X-24.646 Y6.605
X-25.165 Y6.103
X-25.665 Y5.583
X-26.148 Y5.046
X-26.614 Y4.494
X-27.062 Y3.928
X-27.494 Y3.349
X-27.873 Y2.81
X-27.942 Y2.686
X-27.985 Y2.55
X-28. Y2.408
Y0.208
G0 Z5.
X-11.284 Y5.98
Z-5.361
G1 Z-5.661 F1000
X-11.278 Y5.984 Z-5.727
X-11.259 Y5.995 Z-5.791
X-11.228 Y6.014 Z-5.848
X-11.187 Y6.038 Z-5.895
X-11.138 Y6.067 Z-5.931
X-11.084 Y6.099 Z-5.953
X-11.026 Y6.133 Z-5.961
G3 X-10.472 Y6.69 I-0.809 J1.36
G1 X-10.454 Y6.723
X-10.352 Y6.887
X-10.166 Y7.12
X-10.119 Y7.172
X-10.023 Y7.288
X-9.953 Y7.42
X-9.903 Y7.562
X-9.87 Y7.708
X-9.853 Y7.857
X-9.849 Y8.007
X-9.86 Y8.168
X-9.884 Y8.333
X-9.926 Y8.52
X-9.987 Y8.715
X-10.071 Y8.921
X-10.184 Y9.147
X-10.319 Y9.368
X-10.494 Y9.61
X-10.707 Y9.86
X-10.95 Y10.102
X-11.244 Y10.352
X-11.597 Y10.606
X-11.981 Y10.838
X-12.43 Y11.061
X-12.958 Y11.273
X-13.548 Y11.457
X-14.201 Y11.604
X-14.877 Y11.701
X-15.598 Y11.745
X-16.32 Y11.733
X-17.039 Y11.671
X-17.753 Y11.563
X-18.459 Y11.412
X-19.155 Y11.221
X-19.84 Y10.992
X-20.512 Y10.728
X-21.17 Y10.431
X-21.813 Y10.102
X-22.44 Y9.745
X-23.05 Y9.359
X-23.643 Y8.947
X-24.219 Y8.512
X-24.778 Y8.054
